MODULE Module_Blend

	VAR robtarget Blend_0 := [[509.58, -55, 166.5], [0, 0, 1, 0], [0,0,0,0], [9E9, 9E9, 9E9, 9E9, 9E9, 9E9]];
	VAR robtarget Blend_1 := [[510.91, -54.82, 166.5], [0, -0.067335, 0.99773, 0], [0,0,0,0], [9E9, 9E9, 9E9, 9E9, 9E9, 9E9]];
	VAR robtarget Blend_2 := [[512.15, -54.29, 166.5], [0, -0.200784, 0.979635, 0], [0,0,0,0], [9E9, 9E9, 9E9, 9E9, 9E9, 9E9]];
	VAR robtarget Blend_3 := [[513.2, -53.45, 166.5], [0, -0.330592, 0.943774, 0], [0,0,0,0], [9E9, 9E9, 9E9, 9E9, 9E9, 9E9]];
	VAR robtarget Blend_4 := [[513.99, -52.36, 166.5], [0, -0.454404, 0.890795, 0], [0,0,0,0], [9E9, 9E9, 9E9, 9E9, 9E9, 9E9]];
	VAR robtarget Blend_5 := [[514.46, -51.11, 166.5], [0, -0.569975, 0.821662, 0], [0,0,0,0], [9E9, 9E9, 9E9, 9E9, 9E9, 9E9]];
	VAR robtarget Blend_6 := [[514.58, -49.77, 166.5], [0, -0.675209, 0.737626, 0], [0,0,0,0], [9E9, 9E9, 9E9, 9E9, 9E9, 9E9]];
	VAR robtarget Blend_7 := [[514.34, -48.45, 166.5], [0, 0.768197, -0.640213, 0], [0,0,0,0], [9E9, 9E9, 9E9, 9E9, 9E9, 9E9]];
	VAR robtarget Blend_8 := [[513.75, -47.24, 166.5], [0, 0.847254, -0.531189, 0], [0,0,0,0], [9E9, 9E9, 9E9, 9E9, 9E9, 9E9]];
	VAR robtarget Blend_9 := [[512.86, -46.23, 166.5], [0, 0.910944, -0.412531, 0], [0,0,0,0], [9E9, 9E9, 9E9, 9E9, 9E9, 9E9]];
	VAR robtarget Blend_10 := [[511.74, -45.49, 166.5], [0, 0.958113, -0.286391, 0], [0,0,0,0], [9E9, 9E9, 9E9, 9E9, 9E9, 9E9]];
	VAR robtarget Blend_11 := [[504.62, -42.21, 166.5], [0, 0.976863, -0.213866, 0], [0,0,0,0], [9E9, 9E9, 9E9, 9E9, 9E9, 9E9]];
	VAR robtarget Blend_12 := [[497.4, -39.15, 166.5], [0, 0.979977, -0.19911, 0], [0,0,0,0], [9E9, 9E9, 9E9, 9E9, 9E9, 9E9]];
	VAR robtarget Blend_13 := [[490.09, -36.31, 166.5], [0, 0.982868, -0.184309, 0], [0,0,0,0], [9E9, 9E9, 9E9, 9E9, 9E9, 9E9]];
	VAR robtarget Blend_14 := [[482.69, -33.69, 166.5], [0, 0.985536, -0.169465, 0], [0,0,0,0], [9E9, 9E9, 9E9, 9E9, 9E9, 9E9]];
	VAR robtarget Blend_15 := [[470.23, -29.69, 166.5], [0, 0.987939, -0.154846, 0], [0,0,0,0], [9E9, 9E9, 9E9, 9E9, 9E9, 9E9]];
	VAR robtarget Blend_16 := [[457.65, -26.04, 166.5], [0, 0.990087, -0.140456, 0], [0,0,0,0], [9E9, 9E9, 9E9, 9E9, 9E9, 9E9]];
	VAR robtarget Blend_17 := [[444.97, -22.77, 166.5], [0, 0.992026, -0.126037, 0], [0,0,0,0], [9E9, 9E9, 9E9, 9E9, 9E9, 9E9]];
	VAR robtarget Blend_18 := [[443.69, -22.63, 166.5], [0, 0.998516, -0.054464, 0], [0,0,0,0], [9E9, 9E9, 9E9, 9E9, 9E9, 9E9]];
	VAR robtarget Blend_19 := [[442.42, -22.82, 166.5], [0, 0.99721, 0.074653, 0], [0,0,0,0], [9E9, 9E9, 9E9, 9E9, 9E9, 9E9]];
	VAR robtarget Blend_20 := [[441.24, -23.33, 166.5], [0, 0.979277, 0.202526, 0], [0,0,0,0], [9E9, 9E9, 9E9, 9E9, 9E9, 9E9]];
	VAR robtarget Blend_21 := [[440.22, -24.13, 166.5], [0, 0.945017, 0.327022, 0], [0,0,0,0], [9E9, 9E9, 9E9, 9E9, 9E9, 9E9]];
	VAR robtarget Blend_22 := [[439.45, -25.16, 166.5], [0, 0.895, 0.446066, 0], [0,0,0,0], [9E9, 9E9, 9E9, 9E9, 9E9, 9E9]];
	VAR robtarget Blend_23 := [[438.96, -26.35, 166.5], [0, 0.830061, 0.557673, 0], [0,0,0,0], [9E9, 9E9, 9E9, 9E9, 9E9, 9E9]];
	VAR robtarget Blend_24 := [[438.79, -27.63, 166.5], [0, 0.751282, 0.659981, 0], [0,0,0,0], [9E9, 9E9, 9E9, 9E9, 9E9, 9E9]];
	VAR robtarget Blend_25 := [[438.79, -50, 166.5], [0, 0.707105, 0.707108, 0], [0,0,0,0], [9E9, 9E9, 9E9, 9E9, 9E9, 9E9]];
	VAR robtarget Blend_26 := [[438.62, -51.29, 166.5], [0, 0.751838, 0.659347, 0], [0,0,0,0], [9E9, 9E9, 9E9, 9E9, 9E9, 9E9]];
	VAR robtarget Blend_27 := [[438.12, -52.5, 166.5], [0, 0.831469, 0.555572, 0], [0,0,0,0], [9E9, 9E9, 9E9, 9E9, 9E9, 9E9]];
	VAR robtarget Blend_28 := [[437.33, -53.54, 166.5], [0, 0.896872, 0.44229, 0], [0,0,0,0], [9E9, 9E9, 9E9, 9E9, 9E9, 9E9]];
	VAR robtarget Blend_29 := [[436.29, -54.33, 166.5], [0, 0.94693, 0.32144, 0], [0,0,0,0], [9E9, 9E9, 9E9, 9E9, 9E9, 9E9]];
	VAR robtarget Blend_30 := [[435.09, -54.83, 166.5], [0, 0.980785, 0.195091, 0], [0,0,0,0], [9E9, 9E9, 9E9, 9E9, 9E9, 9E9]];
	VAR robtarget Blend_31 := [[433.79, -55, 166.5], [0, 0.997859, 0.065403, 0], [0,0,0,0], [9E9, 9E9, 9E9, 9E9, 9E9, 9E9]];
	VAR robtarget Blend_32 := [[390, -55, 166.5], [0, 1, 0, 0], [0,0,0,0], [9E9, 9E9, 9E9, 9E9, 9E9, 9E9]];
	VAR robtarget Blend_33 := [[387.69, -54.82, 166.5], [0, 0.999255, -0.038606, 0], [0,0,0,0], [9E9, 9E9, 9E9, 9E9, 9E9, 9E9]];
	VAR robtarget Blend_34 := [[385.44, -54.29, 166.5], [0, 0.993297, -0.115588, 0], [0,0,0,0], [9E9, 9E9, 9E9, 9E9, 9E9, 9E9]];
	VAR robtarget Blend_35 := [[383.3, -53.42, 166.5], [0, 0.981418, -0.191882, 0], [0,0,0,0], [9E9, 9E9, 9E9, 9E9, 9E9, 9E9]];
	VAR robtarget Blend_36 := [[381.31, -52.23, 166.5], [0, 0.963688, -0.267031, 0], [0,0,0,0], [9E9, 9E9, 9E9, 9E9, 9E9, 9E9]];
	VAR robtarget Blend_37 := [[379.53, -50.74, 166.5], [0, 0.940213, -0.340588, 0], [0,0,0,0], [9E9, 9E9, 9E9, 9E9, 9E9, 9E9]];
	VAR robtarget Blend_38 := [[378, -49.01, 166.5], [0, 0.911132, -0.412115, 0], [0,0,0,0], [9E9, 9E9, 9E9, 9E9, 9E9, 9E9]];
	VAR robtarget Blend_39 := [[376.76, -47.05, 166.5], [0, 0.876619, -0.481185, 0], [0,0,0,0], [9E9, 9E9, 9E9, 9E9, 9E9, 9E9]];
	VAR robtarget Blend_40 := [[375.83, -44.93, 166.5], [0, 0.83688, -0.547386, 0], [0,0,0,0], [9E9, 9E9, 9E9, 9E9, 9E9, 9E9]];
	VAR robtarget Blend_41 := [[375.24, -42.69, 166.5], [0, 0.792152, -0.610323, 0], [0,0,0,0], [9E9, 9E9, 9E9, 9E9, 9E9, 9E9]];
	VAR robtarget Blend_42 := [[375.01, -40.39, 166.5], [0, 0.742702, -0.669623, 0], [0,0,0,0], [9E9, 9E9, 9E9, 9E9, 9E9, 9E9]];
	VAR robtarget Blend_43 := [[375.12, -37.26, 166.5], [0, -0.694246, 0.719737, 0], [0,0,0,0], [9E9, 9E9, 9E9, 9E9, 9E9, 9E9]];
	VAR robtarget Blend_44 := [[375.62, -34.17, 166.5], [0, -0.648153, 0.76151, 0], [0,0,0,0], [9E9, 9E9, 9E9, 9E9, 9E9, 9E9]];
	VAR robtarget Blend_45 := [[376.5, -31.16, 166.5], [0, -0.599552, 0.800336, 0], [0,0,0,0], [9E9, 9E9, 9E9, 9E9, 9E9, 9E9]];
	VAR robtarget Blend_46 := [[377.75, -28.28, 166.5], [0, -0.548631, 0.836064, 0], [0,0,0,0], [9E9, 9E9, 9E9, 9E9, 9E9, 9E9]];
	VAR robtarget Blend_47 := [[379.34, -25.58, 166.5], [0, -0.495587, 0.868558, 0], [0,0,0,0], [9E9, 9E9, 9E9, 9E9, 9E9, 9E9]];
	VAR robtarget Blend_48 := [[381.26, -23.1, 166.5], [0, -0.440626, 0.897691, 0], [0,0,0,0], [9E9, 9E9, 9E9, 9E9, 9E9, 9E9]];
	VAR robtarget Blend_49 := [[383.47, -20.88, 166.5], [0, -0.383959, 0.92335, 0], [0,0,0,0], [9E9, 9E9, 9E9, 9E9, 9E9, 9E9]];
	VAR robtarget Blend_50 := [[385.94, -18.95, 166.5], [0, -0.325807, 0.945436, 0], [0,0,0,0], [9E9, 9E9, 9E9, 9E9, 9E9, 9E9]];
	VAR robtarget Blend_51 := [[388.63, -17.34, 166.5], [0, -0.266394, 0.963864, 0], [0,0,0,0], [9E9, 9E9, 9E9, 9E9, 9E9, 9E9]];
	VAR robtarget Blend_52 := [[391.5, -16.08, 166.5], [0, -0.20595, 0.978563, 0], [0,0,0,0], [9E9, 9E9, 9E9, 9E9, 9E9, 9E9]];
	VAR robtarget Blend_53 := [[394.5, -15.18, 166.5], [0, -0.144709, 0.989474, 0], [0,0,0,0], [9E9, 9E9, 9E9, 9E9, 9E9, 9E9]];
	VAR robtarget Blend_54 := [[397.59, -14.66, 166.5], [0, -0.082908, 0.996557, 0], [0,0,0,0], [9E9, 9E9, 9E9, 9E9, 9E9, 9E9]];
	VAR robtarget Blend_55 := [[400.72, -14.53, 166.5], [0, -0.020787, 0.999784, 0], [0,0,0,0], [9E9, 9E9, 9E9, 9E9, 9E9, 9E9]];
	VAR robtarget Blend_56 := [[403.85, -14.79, 166.5], [0, 0.041415, 0.999142, 0], [0,0,0,0], [9E9, 9E9, 9E9, 9E9, 9E9, 9E9]];
	VAR robtarget Blend_57 := [[414.23, -16.43, 166.5], [0, 0.078293, 0.99693, 0], [0,0,0,0], [9E9, 9E9, 9E9, 9E9, 9E9, 9E9]];
	VAR robtarget Blend_58 := [[424.57, -18.31, 166.5], [0, 0.089929, 0.995948, 0], [0,0,0,0], [9E9, 9E9, 9E9, 9E9, 9E9, 9E9]];
	VAR robtarget Blend_59 := [[434.86, -20.44, 166.5], [0, 0.101553, 0.99483, 0], [0,0,0,0], [9E9, 9E9, 9E9, 9E9, 9E9, 9E9]];
	VAR robtarget Blend_60 := [[436.13, -20.9, 166.5], [0, 0.174453, 0.984666, 0], [0,0,0,0], [9E9, 9E9, 9E9, 9E9, 9E9, 9E9]];
	VAR robtarget Blend_61 := [[437.23, -21.69, 166.5], [0, 0.305931, 0.952054, 0], [0,0,0,0], [9E9, 9E9, 9E9, 9E9, 9E9, 9E9]];
	VAR robtarget Blend_62 := [[438.08, -22.74, 166.5], [0, 0.431795, 0.901972, 0], [0,0,0,0], [9E9, 9E9, 9E9, 9E9, 9E9, 9E9]];
	VAR robtarget Blend_63 := [[438.61, -23.98, 166.5], [0, 0.549735, 0.835339, 0], [0,0,0,0], [9E9, 9E9, 9E9, 9E9, 9E9, 9E9]];
	VAR robtarget Blend_64 := [[438.79, -25.32, 166.5], [0, 0.657588, 0.753378, 0], [0,0,0,0], [9E9, 9E9, 9E9, 9E9, 9E9, 9E9]];
	VAR robtarget Blend_65 := [[438.79, -50, 166.5], [0, 0.707105, 0.707108, 0], [0,0,0,0], [9E9, 9E9, 9E9, 9E9, 9E9, 9E9]];
	VAR robtarget Blend_66 := [[438.96, -51.29, 166.5], [0, 0.659344, 0.751841, 0], [0,0,0,0], [9E9, 9E9, 9E9, 9E9, 9E9, 9E9]];
	VAR robtarget Blend_67 := [[439.46, -52.5, 166.5], [0, 0.555569, 0.831471, 0], [0,0,0,0], [9E9, 9E9, 9E9, 9E9, 9E9, 9E9]];
	VAR robtarget Blend_68 := [[440.26, -53.54, 166.5], [0, 0.442288, 0.896873, 0], [0,0,0,0], [9E9, 9E9, 9E9, 9E9, 9E9, 9E9]];
	VAR robtarget Blend_69 := [[441.29, -54.33, 166.5], [0, 0.321439, 0.94693, 0], [0,0,0,0], [9E9, 9E9, 9E9, 9E9, 9E9, 9E9]];
	VAR robtarget Blend_70 := [[442.5, -54.83, 166.5], [0, 0.19509, 0.980785, 0], [0,0,0,0], [9E9, 9E9, 9E9, 9E9, 9E9, 9E9]];
	VAR robtarget Blend_71 := [[443.79, -55, 166.5], [0, 0.065403, 0.997859, 0], [0,0,0,0], [9E9, 9E9, 9E9, 9E9, 9E9, 9E9]];
	VAR robtarget Blend_72 := [[458, -55, 166.5], [0, 0, 1, 0], [0,0,0,0], [9E9, 9E9, 9E9, 9E9, 9E9, 9E9]];
	VAR robtarget Blend_73 := [[459.24, -55, 166.6], [0, 0, 1, 0], [0,0,0,0], [9E9, 9E9, 9E9, 9E9, 9E9, 9E9]];
	VAR robtarget Blend_74 := [[480.68, -55, 166.6], [0, 0, 1, 0], [0,0,0,0], [9E9, 9E9, 9E9, 9E9, 9E9, 9E9]];
	VAR robtarget Blend_75 := [[481.97, -54.83, 166.6], [0, -0.065403, 0.997859, 0], [0,0,0,0], [9E9, 9E9, 9E9, 9E9, 9E9, 9E9]];
	VAR robtarget Blend_76 := [[483.18, -54.33, 166.6], [0, -0.19509, 0.980785, 0], [0,0,0,0], [9E9, 9E9, 9E9, 9E9, 9E9, 9E9]];
	VAR robtarget Blend_77 := [[484.21, -53.54, 166.6], [0, -0.321439, 0.94693, 0], [0,0,0,0], [9E9, 9E9, 9E9, 9E9, 9E9, 9E9]];
	VAR robtarget Blend_78 := [[485.01, -52.5, 166.6], [0, -0.442289, 0.896873, 0], [0,0,0,0], [9E9, 9E9, 9E9, 9E9, 9E9, 9E9]];
	VAR robtarget Blend_79 := [[485.51, -51.29, 166.6], [0, -0.55557, 0.83147, 0], [0,0,0,0], [9E9, 9E9, 9E9, 9E9, 9E9, 9E9]];
	VAR robtarget Blend_80 := [[485.68, -50, 166.6], [0, -0.659346, 0.75184, 0], [0,0,0,0], [9E9, 9E9, 9E9, 9E9, 9E9, 9E9]];
	VAR robtarget Blend_81 := [[485.68, -41.88, 166.6], [0, 0.707107, -0.707107, 0], [0,0,0,0], [9E9, 9E9, 9E9, 9E9, 9E9, 9E9]];
	VAR robtarget Blend_82 := [[485.87, -40.51, 166.6], [0, -0.656559, 0.754275, 0], [0,0,0,0], [9E9, 9E9, 9E9, 9E9, 9E9, 9E9]];
	VAR robtarget Blend_83 := [[486.42, -39.25, 166.6], [0, -0.546305, 0.837586, 0], [0,0,0,0], [9E9, 9E9, 9E9, 9E9, 9E9, 9E9]];
	VAR robtarget Blend_84 := [[487.3, -38.19, 166.6], [0, -0.425618, 0.904903, 0], [0,0,0,0], [9E9, 9E9, 9E9, 9E9, 9E9, 9E9]];
	VAR robtarget Blend_85 := [[488.44, -37.41, 166.6], [0, -0.296803, 0.954939, 0], [0,0,0,0], [9E9, 9E9, 9E9, 9E9, 9E9, 9E9]];
	VAR robtarget Blend_86 := [[489.74, -36.96, 166.6], [0, -0.162321, 0.986738, 0], [0,0,0,0], [9E9, 9E9, 9E9, 9E9, 9E9, 9E9]];
	VAR robtarget Blend_87 := [[491.12, -36.9, 166.6], [0, -0.024738, 0.999694, 0], [0,0,0,0], [9E9, 9E9, 9E9, 9E9, 9E9, 9E9]];
	VAR robtarget Blend_88 := [[492.46, -37.21, 166.6], [0, 0.113317, 0.993559, 0], [0,0,0,0], [9E9, 9E9, 9E9, 9E9, 9E9, 9E9]];
	VAR robtarget Blend_89 := [[498.96, -39.79, 166.6], [0, 0.188307, 0.98211, 0], [0,0,0,0], [9E9, 9E9, 9E9, 9E9, 9E9, 9E9]];
	VAR robtarget Blend_90 := [[505.39, -42.56, 166.6], [0, 0.201503, 0.979488, 0], [0,0,0,0], [9E9, 9E9, 9E9, 9E9, 9E9, 9E9]];
	VAR robtarget Blend_91 := [[511.74, -45.49, 166.6], [0, 0.214661, 0.976689, 0], [0,0,0,0], [9E9, 9E9, 9E9, 9E9, 9E9, 9E9]];
	VAR robtarget Blend_92 := [[512.86, -46.23, 166.6], [0, 0.286391, 0.958113, 0], [0,0,0,0], [9E9, 9E9, 9E9, 9E9, 9E9, 9E9]];
	VAR robtarget Blend_93 := [[513.75, -47.24, 166.6], [0, 0.412531, 0.910944, 0], [0,0,0,0], [9E9, 9E9, 9E9, 9E9, 9E9, 9E9]];
	VAR robtarget Blend_94 := [[514.34, -48.45, 166.6], [0, 0.531189, 0.847254, 0], [0,0,0,0], [9E9, 9E9, 9E9, 9E9, 9E9, 9E9]];
	VAR robtarget Blend_95 := [[514.58, -49.77, 166.6], [0, 0.640213, 0.768197, 0], [0,0,0,0], [9E9, 9E9, 9E9, 9E9, 9E9, 9E9]];
	VAR robtarget Blend_96 := [[514.46, -51.11, 166.6], [0, 0.737626, 0.675209, 0], [0,0,0,0], [9E9, 9E9, 9E9, 9E9, 9E9, 9E9]];
	VAR robtarget Blend_97 := [[513.99, -52.36, 166.6], [0, 0.821662, 0.569975, 0], [0,0,0,0], [9E9, 9E9, 9E9, 9E9, 9E9, 9E9]];
	VAR robtarget Blend_98 := [[513.2, -53.45, 166.6], [0, 0.890795, 0.454404, 0], [0,0,0,0], [9E9, 9E9, 9E9, 9E9, 9E9, 9E9]];
	VAR robtarget Blend_99 := [[512.15, -54.29, 166.6], [0, 0.943774, 0.330592, 0], [0,0,0,0], [9E9, 9E9, 9E9, 9E9, 9E9, 9E9]];
	VAR robtarget Blend_100 := [[510.91, -54.82, 166.6], [0, 0.979635, 0.200784, 0], [0,0,0,0], [9E9, 9E9, 9E9, 9E9, 9E9, 9E9]];
	VAR robtarget Blend_101 := [[509.58, -55, 166.6], [0, 0.99773, 0.067335, 0], [0,0,0,0], [9E9, 9E9, 9E9, 9E9, 9E9, 9E9]];
	VAR robtarget Blend_102 := [[490.68, -55, 166.6], [0, 1, 0, 0], [0,0,0,0], [9E9, 9E9, 9E9, 9E9, 9E9, 9E9]];
	VAR robtarget Blend_103 := [[489.38, -54.83, 166.6], [0, 0.997859, -0.065403, 0], [0,0,0,0], [9E9, 9E9, 9E9, 9E9, 9E9, 9E9]];
	VAR robtarget Blend_104 := [[488.18, -54.33, 166.6], [0, 0.980785, -0.19509, 0], [0,0,0,0], [9E9, 9E9, 9E9, 9E9, 9E9, 9E9]];
	VAR robtarget Blend_105 := [[487.14, -53.54, 166.6], [0, 0.94693, -0.321439, 0], [0,0,0,0], [9E9, 9E9, 9E9, 9E9, 9E9, 9E9]];
	VAR robtarget Blend_106 := [[486.35, -52.5, 166.6], [0, 0.896873, -0.442289, 0], [0,0,0,0], [9E9, 9E9, 9E9, 9E9, 9E9, 9E9]];
	VAR robtarget Blend_107 := [[485.85, -51.29, 166.6], [0, 0.83147, -0.55557, 0], [0,0,0,0], [9E9, 9E9, 9E9, 9E9, 9E9, 9E9]];
	VAR robtarget Blend_108 := [[485.68, -50, 166.6], [0, 0.75184, -0.659346, 0], [0,0,0,0], [9E9, 9E9, 9E9, 9E9, 9E9, 9E9]];
	VAR robtarget Blend_109 := [[485.68, -38.29, 166.6], [0, 0.707107, -0.707107, 0], [0,0,0,0], [9E9, 9E9, 9E9, 9E9, 9E9, 9E9]];
	VAR robtarget Blend_110 := [[485.52, -37.05, 166.6], [0, 0.749769, -0.661699, 0], [0,0,0,0], [9E9, 9E9, 9E9, 9E9, 9E9, 9E9]];
	VAR robtarget Blend_111 := [[485.07, -35.9, 166.6], [0, 0.826208, -0.563365, 0], [0,0,0,0], [9E9, 9E9, 9E9, 9E9, 9E9, 9E9]];
	VAR robtarget Blend_112 := [[484.34, -34.89, 166.6], [0, 0.88983, -0.456292, 0], [0,0,0,0], [9E9, 9E9, 9E9, 9E9, 9E9, 9E9]];
	VAR robtarget Blend_113 := [[483.39, -34.09, 166.6], [0, 0.939649, -0.34214, 0], [0,0,0,0], [9E9, 9E9, 9E9, 9E9, 9E9, 9E9]];
	VAR robtarget Blend_114 := [[482.27, -33.55, 166.6], [0, 0.974891, -0.222681, 0], [0,0,0,0], [9E9, 9E9, 9E9, 9E9, 9E9, 9E9]];
	VAR robtarget Blend_115 := [[471.29, -30.01, 166.6], [0, 0.987881, -0.15521, 0], [0,0,0,0], [9E9, 9E9, 9E9, 9E9, 9E9, 9E9]];
	VAR robtarget Blend_116 := [[460.23, -26.76, 166.6], [0, 0.989789, -0.142537, 0], [0,0,0,0], [9E9, 9E9, 9E9, 9E9, 9E9, 9E9]];
	VAR robtarget Blend_117 := [[449.08, -23.79, 166.6], [0, 0.991535, -0.12984, 0], [0,0,0,0], [9E9, 9E9, 9E9, 9E9, 9E9, 9E9]];
	VAR robtarget Blend_118 := [[437.86, -21.1, 166.6], [0, 0.993118, -0.117122, 0], [0,0,0,0], [9E9, 9E9, 9E9, 9E9, 9E9, 9E9]];
	VAR robtarget Blend_119 := [[426.58, -18.71, 166.6], [0, 0.994537, -0.104385, 0], [0,0,0,0], [9E9, 9E9, 9E9, 9E9, 9E9, 9E9]];
	VAR robtarget Blend_120 := [[415.24, -16.6, 166.6], [0, 0.995793, -0.09163, 0], [0,0,0,0], [9E9, 9E9, 9E9, 9E9, 9E9, 9E9]];
	VAR robtarget Blend_121 := [[403.85, -14.79, 166.6], [0, 0.996886, -0.078861, 0], [0,0,0,0], [9E9, 9E9, 9E9, 9E9, 9E9, 9E9]];
	VAR robtarget Blend_122 := [[400.72, -14.53, 166.6], [0, 0.999142, -0.041415, 0], [0,0,0,0], [9E9, 9E9, 9E9, 9E9, 9E9, 9E9]];
	VAR robtarget Blend_123 := [[397.59, -14.66, 166.6], [0, 0.999784, 0.020787, 0], [0,0,0,0], [9E9, 9E9, 9E9, 9E9, 9E9, 9E9]];
	VAR robtarget Blend_124 := [[394.5, -15.18, 166.6], [0, 0.996557, 0.082908, 0], [0,0,0,0], [9E9, 9E9, 9E9, 9E9, 9E9, 9E9]];
	VAR robtarget Blend_125 := [[391.5, -16.08, 166.6], [0, 0.989474, 0.144709, 0], [0,0,0,0], [9E9, 9E9, 9E9, 9E9, 9E9, 9E9]];
	VAR robtarget Blend_126 := [[388.63, -17.34, 166.6], [0, 0.978563, 0.20595, 0], [0,0,0,0], [9E9, 9E9, 9E9, 9E9, 9E9, 9E9]];
	VAR robtarget Blend_127 := [[385.94, -18.95, 166.6], [0, 0.963864, 0.266394, 0], [0,0,0,0], [9E9, 9E9, 9E9, 9E9, 9E9, 9E9]];
	VAR robtarget Blend_128 := [[383.47, -20.88, 166.6], [0, 0.945436, 0.325807, 0], [0,0,0,0], [9E9, 9E9, 9E9, 9E9, 9E9, 9E9]];
	VAR robtarget Blend_129 := [[381.26, -23.1, 166.6], [0, 0.92335, 0.383959, 0], [0,0,0,0], [9E9, 9E9, 9E9, 9E9, 9E9, 9E9]];
	VAR robtarget Blend_130 := [[379.34, -25.58, 166.6], [0, 0.897691, 0.440626, 0], [0,0,0,0], [9E9, 9E9, 9E9, 9E9, 9E9, 9E9]];
	VAR robtarget Blend_131 := [[377.75, -28.28, 166.6], [0, 0.868558, 0.495587, 0], [0,0,0,0], [9E9, 9E9, 9E9, 9E9, 9E9, 9E9]];
	VAR robtarget Blend_132 := [[376.5, -31.16, 166.6], [0, 0.836064, 0.548631, 0], [0,0,0,0], [9E9, 9E9, 9E9, 9E9, 9E9, 9E9]];
	VAR robtarget Blend_133 := [[375.62, -34.17, 166.6], [0, 0.800336, 0.599552, 0], [0,0,0,0], [9E9, 9E9, 9E9, 9E9, 9E9, 9E9]];
	VAR robtarget Blend_134 := [[375.12, -37.26, 166.6], [0, 0.76151, 0.648153, 0], [0,0,0,0], [9E9, 9E9, 9E9, 9E9, 9E9, 9E9]];
	VAR robtarget Blend_135 := [[375.01, -40.39, 166.6], [0, 0.719737, 0.694246, 0], [0,0,0,0], [9E9, 9E9, 9E9, 9E9, 9E9, 9E9]];
	VAR robtarget Blend_136 := [[375.24, -42.69, 166.6], [0, 0.669623, 0.742702, 0], [0,0,0,0], [9E9, 9E9, 9E9, 9E9, 9E9, 9E9]];
	VAR robtarget Blend_137 := [[375.83, -44.93, 166.6], [0, 0.610323, 0.792152, 0], [0,0,0,0], [9E9, 9E9, 9E9, 9E9, 9E9, 9E9]];
	VAR robtarget Blend_138 := [[376.76, -47.05, 166.6], [0, 0.547386, 0.83688, 0], [0,0,0,0], [9E9, 9E9, 9E9, 9E9, 9E9, 9E9]];
	VAR robtarget Blend_139 := [[378, -49.01, 166.6], [0, 0.481185, 0.876619, 0], [0,0,0,0], [9E9, 9E9, 9E9, 9E9, 9E9, 9E9]];
	VAR robtarget Blend_140 := [[379.53, -50.74, 166.6], [0, 0.412115, 0.911132, 0], [0,0,0,0], [9E9, 9E9, 9E9, 9E9, 9E9, 9E9]];
	VAR robtarget Blend_141 := [[381.31, -52.23, 166.6], [0, 0.340588, 0.940213, 0], [0,0,0,0], [9E9, 9E9, 9E9, 9E9, 9E9, 9E9]];
	VAR robtarget Blend_142 := [[383.3, -53.42, 166.6], [0, 0.267031, 0.963688, 0], [0,0,0,0], [9E9, 9E9, 9E9, 9E9, 9E9, 9E9]];
	VAR robtarget Blend_143 := [[385.44, -54.29, 166.6], [0, 0.191882, 0.981418, 0], [0,0,0,0], [9E9, 9E9, 9E9, 9E9, 9E9, 9E9]];
	VAR robtarget Blend_144 := [[387.69, -54.82, 166.6], [0, 0.115588, 0.993297, 0], [0,0,0,0], [9E9, 9E9, 9E9, 9E9, 9E9, 9E9]];
	VAR robtarget Blend_145 := [[390, -55, 166.6], [0, 0.038606, 0.999255, 0], [0,0,0,0], [9E9, 9E9, 9E9, 9E9, 9E9, 9E9]];
	VAR robtarget Blend_146 := [[458, -55, 166.6], [0, 0, 1, 0], [0,0,0,0], [9E9, 9E9, 9E9, 9E9, 9E9, 9E9]];
	VAR robtarget Blend_147 := [[459.24, -55, 166.7], [0, 0, 1, 0], [0,0,0,0], [9E9, 9E9, 9E9, 9E9, 9E9, 9E9]];
	VAR robtarget Blend_148 := [[509.58, -55, 166.7], [0, 0, 1, 0], [0,0,0,0], [9E9, 9E9, 9E9, 9E9, 9E9, 9E9]];
	VAR robtarget Blend_149 := [[510.91, -54.82, 166.7], [0, -0.067335, 0.99773, 0], [0,0,0,0], [9E9, 9E9, 9E9, 9E9, 9E9, 9E9]];
	VAR robtarget Blend_150 := [[512.15, -54.29, 166.7], [0, -0.200784, 0.979635, 0], [0,0,0,0], [9E9, 9E9, 9E9, 9E9, 9E9, 9E9]];
	VAR robtarget Blend_151 := [[513.2, -53.45, 166.7], [0, -0.330592, 0.943774, 0], [0,0,0,0], [9E9, 9E9, 9E9, 9E9, 9E9, 9E9]];
	VAR robtarget Blend_152 := [[513.99, -52.36, 166.7], [0, -0.454404, 0.890795, 0], [0,0,0,0], [9E9, 9E9, 9E9, 9E9, 9E9, 9E9]];
	VAR robtarget Blend_153 := [[514.46, -51.11, 166.7], [0, -0.569975, 0.821662, 0], [0,0,0,0], [9E9, 9E9, 9E9, 9E9, 9E9, 9E9]];
	VAR robtarget Blend_154 := [[514.58, -49.77, 166.7], [0, -0.675209, 0.737626, 0], [0,0,0,0], [9E9, 9E9, 9E9, 9E9, 9E9, 9E9]];
	VAR robtarget Blend_155 := [[514.34, -48.45, 166.7], [0, 0.768197, -0.640213, 0], [0,0,0,0], [9E9, 9E9, 9E9, 9E9, 9E9, 9E9]];
	VAR robtarget Blend_156 := [[513.75, -47.24, 166.7], [0, 0.847254, -0.531189, 0], [0,0,0,0], [9E9, 9E9, 9E9, 9E9, 9E9, 9E9]];
	VAR robtarget Blend_157 := [[512.86, -46.23, 166.7], [0, 0.910944, -0.412531, 0], [0,0,0,0], [9E9, 9E9, 9E9, 9E9, 9E9, 9E9]];
	VAR robtarget Blend_158 := [[511.74, -45.49, 166.7], [0, 0.958113, -0.286391, 0], [0,0,0,0], [9E9, 9E9, 9E9, 9E9, 9E9, 9E9]];
	VAR robtarget Blend_159 := [[504.62, -42.21, 166.7], [0, 0.976863, -0.213866, 0], [0,0,0,0], [9E9, 9E9, 9E9, 9E9, 9E9, 9E9]];
	VAR robtarget Blend_160 := [[497.4, -39.15, 166.7], [0, 0.979977, -0.19911, 0], [0,0,0,0], [9E9, 9E9, 9E9, 9E9, 9E9, 9E9]];
	VAR robtarget Blend_161 := [[490.09, -36.31, 166.7], [0, 0.982868, -0.184309, 0], [0,0,0,0], [9E9, 9E9, 9E9, 9E9, 9E9, 9E9]];
	VAR robtarget Blend_162 := [[482.69, -33.69, 166.7], [0, 0.985536, -0.169465, 0], [0,0,0,0], [9E9, 9E9, 9E9, 9E9, 9E9, 9E9]];
	VAR robtarget Blend_163 := [[470.23, -29.69, 166.7], [0, 0.987939, -0.154846, 0], [0,0,0,0], [9E9, 9E9, 9E9, 9E9, 9E9, 9E9]];
	VAR robtarget Blend_164 := [[457.65, -26.04, 166.7], [0, 0.990087, -0.140456, 0], [0,0,0,0], [9E9, 9E9, 9E9, 9E9, 9E9, 9E9]];
	VAR robtarget Blend_165 := [[444.97, -22.77, 166.7], [0, 0.992026, -0.126037, 0], [0,0,0,0], [9E9, 9E9, 9E9, 9E9, 9E9, 9E9]];
	VAR robtarget Blend_166 := [[443.69, -22.63, 166.7], [0, 0.998516, -0.054464, 0], [0,0,0,0], [9E9, 9E9, 9E9, 9E9, 9E9, 9E9]];
	VAR robtarget Blend_167 := [[442.42, -22.82, 166.7], [0, 0.99721, 0.074653, 0], [0,0,0,0], [9E9, 9E9, 9E9, 9E9, 9E9, 9E9]];
	VAR robtarget Blend_168 := [[441.24, -23.33, 166.7], [0, 0.979277, 0.202526, 0], [0,0,0,0], [9E9, 9E9, 9E9, 9E9, 9E9, 9E9]];
	VAR robtarget Blend_169 := [[440.22, -24.13, 166.7], [0, 0.945017, 0.327022, 0], [0,0,0,0], [9E9, 9E9, 9E9, 9E9, 9E9, 9E9]];
	VAR robtarget Blend_170 := [[439.45, -25.16, 166.7], [0, 0.895, 0.446066, 0], [0,0,0,0], [9E9, 9E9, 9E9, 9E9, 9E9, 9E9]];
	VAR robtarget Blend_171 := [[438.96, -26.35, 166.7], [0, 0.830061, 0.557673, 0], [0,0,0,0], [9E9, 9E9, 9E9, 9E9, 9E9, 9E9]];
	VAR robtarget Blend_172 := [[438.79, -27.63, 166.7], [0, 0.751282, 0.659981, 0], [0,0,0,0], [9E9, 9E9, 9E9, 9E9, 9E9, 9E9]];
	VAR robtarget Blend_173 := [[438.79, -50, 166.7], [0, 0.707105, 0.707108, 0], [0,0,0,0], [9E9, 9E9, 9E9, 9E9, 9E9, 9E9]];
	VAR robtarget Blend_174 := [[438.62, -51.29, 166.7], [0, 0.751838, 0.659347, 0], [0,0,0,0], [9E9, 9E9, 9E9, 9E9, 9E9, 9E9]];
	VAR robtarget Blend_175 := [[438.12, -52.5, 166.7], [0, 0.831469, 0.555572, 0], [0,0,0,0], [9E9, 9E9, 9E9, 9E9, 9E9, 9E9]];
	VAR robtarget Blend_176 := [[437.33, -53.54, 166.7], [0, 0.896872, 0.44229, 0], [0,0,0,0], [9E9, 9E9, 9E9, 9E9, 9E9, 9E9]];
	VAR robtarget Blend_177 := [[436.29, -54.33, 166.7], [0, 0.94693, 0.32144, 0], [0,0,0,0], [9E9, 9E9, 9E9, 9E9, 9E9, 9E9]];
	VAR robtarget Blend_178 := [[435.09, -54.83, 166.7], [0, 0.980785, 0.195091, 0], [0,0,0,0], [9E9, 9E9, 9E9, 9E9, 9E9, 9E9]];
	VAR robtarget Blend_179 := [[433.79, -55, 166.7], [0, 0.997859, 0.065403, 0], [0,0,0,0], [9E9, 9E9, 9E9, 9E9, 9E9, 9E9]];
	VAR robtarget Blend_180 := [[390, -55, 166.7], [0, 1, 0, 0], [0,0,0,0], [9E9, 9E9, 9E9, 9E9, 9E9, 9E9]];
	VAR robtarget Blend_181 := [[387.69, -54.82, 166.7], [0, 0.999255, -0.038606, 0], [0,0,0,0], [9E9, 9E9, 9E9, 9E9, 9E9, 9E9]];
	VAR robtarget Blend_182 := [[385.44, -54.29, 166.7], [0, 0.993297, -0.115588, 0], [0,0,0,0], [9E9, 9E9, 9E9, 9E9, 9E9, 9E9]];
	VAR robtarget Blend_183 := [[383.3, -53.42, 166.7], [0, 0.981418, -0.191882, 0], [0,0,0,0], [9E9, 9E9, 9E9, 9E9, 9E9, 9E9]];
	VAR robtarget Blend_184 := [[381.31, -52.23, 166.7], [0, 0.963688, -0.267031, 0], [0,0,0,0], [9E9, 9E9, 9E9, 9E9, 9E9, 9E9]];
	VAR robtarget Blend_185 := [[379.53, -50.74, 166.7], [0, 0.940213, -0.340588, 0], [0,0,0,0], [9E9, 9E9, 9E9, 9E9, 9E9, 9E9]];
	VAR robtarget Blend_186 := [[378, -49.01, 166.7], [0, 0.911132, -0.412115, 0], [0,0,0,0], [9E9, 9E9, 9E9, 9E9, 9E9, 9E9]];
	VAR robtarget Blend_187 := [[376.76, -47.05, 166.7], [0, 0.876619, -0.481185, 0], [0,0,0,0], [9E9, 9E9, 9E9, 9E9, 9E9, 9E9]];
	VAR robtarget Blend_188 := [[375.83, -44.93, 166.7], [0, 0.83688, -0.547386, 0], [0,0,0,0], [9E9, 9E9, 9E9, 9E9, 9E9, 9E9]];
	VAR robtarget Blend_189 := [[375.24, -42.69, 166.7], [0, 0.792152, -0.610323, 0], [0,0,0,0], [9E9, 9E9, 9E9, 9E9, 9E9, 9E9]];
	VAR robtarget Blend_190 := [[375.01, -40.39, 166.7], [0, 0.742702, -0.669623, 0], [0,0,0,0], [9E9, 9E9, 9E9, 9E9, 9E9, 9E9]];
	VAR robtarget Blend_191 := [[375.12, -37.26, 166.7], [0, -0.694246, 0.719737, 0], [0,0,0,0], [9E9, 9E9, 9E9, 9E9, 9E9, 9E9]];
	VAR robtarget Blend_192 := [[375.62, -34.17, 166.7], [0, -0.648153, 0.76151, 0], [0,0,0,0], [9E9, 9E9, 9E9, 9E9, 9E9, 9E9]];
	VAR robtarget Blend_193 := [[376.5, -31.16, 166.7], [0, -0.599552, 0.800336, 0], [0,0,0,0], [9E9, 9E9, 9E9, 9E9, 9E9, 9E9]];
	VAR robtarget Blend_194 := [[377.75, -28.28, 166.7], [0, -0.548631, 0.836064, 0], [0,0,0,0], [9E9, 9E9, 9E9, 9E9, 9E9, 9E9]];
	VAR robtarget Blend_195 := [[379.34, -25.58, 166.7], [0, -0.495587, 0.868558, 0], [0,0,0,0], [9E9, 9E9, 9E9, 9E9, 9E9, 9E9]];
	VAR robtarget Blend_196 := [[381.26, -23.1, 166.7], [0, -0.440626, 0.897691, 0], [0,0,0,0], [9E9, 9E9, 9E9, 9E9, 9E9, 9E9]];
	VAR robtarget Blend_197 := [[383.47, -20.88, 166.7], [0, -0.383959, 0.92335, 0], [0,0,0,0], [9E9, 9E9, 9E9, 9E9, 9E9, 9E9]];
	VAR robtarget Blend_198 := [[385.94, -18.95, 166.7], [0, -0.325807, 0.945436, 0], [0,0,0,0], [9E9, 9E9, 9E9, 9E9, 9E9, 9E9]];
	VAR robtarget Blend_199 := [[388.63, -17.34, 166.7], [0, -0.266394, 0.963864, 0], [0,0,0,0], [9E9, 9E9, 9E9, 9E9, 9E9, 9E9]];
	VAR robtarget Blend_200 := [[391.5, -16.08, 166.7], [0, -0.20595, 0.978563, 0], [0,0,0,0], [9E9, 9E9, 9E9, 9E9, 9E9, 9E9]];
	VAR robtarget Blend_201 := [[394.5, -15.18, 166.7], [0, -0.144709, 0.989474, 0], [0,0,0,0], [9E9, 9E9, 9E9, 9E9, 9E9, 9E9]];
	VAR robtarget Blend_202 := [[397.59, -14.66, 166.7], [0, -0.082908, 0.996557, 0], [0,0,0,0], [9E9, 9E9, 9E9, 9E9, 9E9, 9E9]];
	VAR robtarget Blend_203 := [[400.72, -14.53, 166.7], [0, -0.020787, 0.999784, 0], [0,0,0,0], [9E9, 9E9, 9E9, 9E9, 9E9, 9E9]];
	VAR robtarget Blend_204 := [[403.85, -14.79, 166.7], [0, 0.041415, 0.999142, 0], [0,0,0,0], [9E9, 9E9, 9E9, 9E9, 9E9, 9E9]];
	VAR robtarget Blend_205 := [[414.23, -16.43, 166.7], [0, 0.078293, 0.99693, 0], [0,0,0,0], [9E9, 9E9, 9E9, 9E9, 9E9, 9E9]];
	VAR robtarget Blend_206 := [[424.57, -18.31, 166.7], [0, 0.089929, 0.995948, 0], [0,0,0,0], [9E9, 9E9, 9E9, 9E9, 9E9, 9E9]];
	VAR robtarget Blend_207 := [[434.86, -20.44, 166.7], [0, 0.101553, 0.99483, 0], [0,0,0,0], [9E9, 9E9, 9E9, 9E9, 9E9, 9E9]];
	VAR robtarget Blend_208 := [[436.13, -20.9, 166.7], [0, 0.174453, 0.984666, 0], [0,0,0,0], [9E9, 9E9, 9E9, 9E9, 9E9, 9E9]];
	VAR robtarget Blend_209 := [[437.23, -21.69, 166.7], [0, 0.305931, 0.952054, 0], [0,0,0,0], [9E9, 9E9, 9E9, 9E9, 9E9, 9E9]];
	VAR robtarget Blend_210 := [[438.08, -22.74, 166.7], [0, 0.431795, 0.901972, 0], [0,0,0,0], [9E9, 9E9, 9E9, 9E9, 9E9, 9E9]];
	VAR robtarget Blend_211 := [[438.61, -23.98, 166.7], [0, 0.549735, 0.835339, 0], [0,0,0,0], [9E9, 9E9, 9E9, 9E9, 9E9, 9E9]];
	VAR robtarget Blend_212 := [[438.79, -25.32, 166.7], [0, 0.657588, 0.753378, 0], [0,0,0,0], [9E9, 9E9, 9E9, 9E9, 9E9, 9E9]];
	VAR robtarget Blend_213 := [[438.79, -50, 166.7], [0, 0.707105, 0.707108, 0], [0,0,0,0], [9E9, 9E9, 9E9, 9E9, 9E9, 9E9]];
	VAR robtarget Blend_214 := [[438.96, -51.29, 166.7], [0, 0.659344, 0.751841, 0], [0,0,0,0], [9E9, 9E9, 9E9, 9E9, 9E9, 9E9]];
	VAR robtarget Blend_215 := [[439.46, -52.5, 166.7], [0, 0.555569, 0.831471, 0], [0,0,0,0], [9E9, 9E9, 9E9, 9E9, 9E9, 9E9]];
	VAR robtarget Blend_216 := [[440.26, -53.54, 166.7], [0, 0.442288, 0.896873, 0], [0,0,0,0], [9E9, 9E9, 9E9, 9E9, 9E9, 9E9]];
	VAR robtarget Blend_217 := [[441.29, -54.33, 166.7], [0, 0.321439, 0.94693, 0], [0,0,0,0], [9E9, 9E9, 9E9, 9E9, 9E9, 9E9]];
	VAR robtarget Blend_218 := [[442.5, -54.83, 166.7], [0, 0.19509, 0.980785, 0], [0,0,0,0], [9E9, 9E9, 9E9, 9E9, 9E9, 9E9]];
	VAR robtarget Blend_219 := [[443.79, -55, 166.7], [0, 0.065403, 0.997859, 0], [0,0,0,0], [9E9, 9E9, 9E9, 9E9, 9E9, 9E9]];
	VAR robtarget Blend_220 := [[458, -55, 166.7], [0, 0, 1, 0], [0,0,0,0], [9E9, 9E9, 9E9, 9E9, 9E9, 9E9]];
	VAR robtarget Blend_221 := [[459.24, -55, 166.8], [0, 0, 1, 0], [0,0,0,0], [9E9, 9E9, 9E9, 9E9, 9E9, 9E9]];
	VAR robtarget Blend_222 := [[480.68, -55, 166.8], [0, 0, 1, 0], [0,0,0,0], [9E9, 9E9, 9E9, 9E9, 9E9, 9E9]];
	VAR robtarget Blend_223 := [[481.97, -54.83, 166.8], [0, -0.065403, 0.997859, 0], [0,0,0,0], [9E9, 9E9, 9E9, 9E9, 9E9, 9E9]];
	VAR robtarget Blend_224 := [[483.18, -54.33, 166.8], [0, -0.19509, 0.980785, 0], [0,0,0,0], [9E9, 9E9, 9E9, 9E9, 9E9, 9E9]];
	VAR robtarget Blend_225 := [[484.21, -53.54, 166.8], [0, -0.321439, 0.94693, 0], [0,0,0,0], [9E9, 9E9, 9E9, 9E9, 9E9, 9E9]];
	VAR robtarget Blend_226 := [[485.01, -52.5, 166.8], [0, -0.442289, 0.896873, 0], [0,0,0,0], [9E9, 9E9, 9E9, 9E9, 9E9, 9E9]];
	VAR robtarget Blend_227 := [[485.51, -51.29, 166.8], [0, -0.55557, 0.83147, 0], [0,0,0,0], [9E9, 9E9, 9E9, 9E9, 9E9, 9E9]];
	VAR robtarget Blend_228 := [[485.68, -50, 166.8], [0, -0.659346, 0.75184, 0], [0,0,0,0], [9E9, 9E9, 9E9, 9E9, 9E9, 9E9]];
	VAR robtarget Blend_229 := [[485.68, -41.88, 166.8], [0, 0.707107, -0.707107, 0], [0,0,0,0], [9E9, 9E9, 9E9, 9E9, 9E9, 9E9]];
	VAR robtarget Blend_230 := [[485.87, -40.51, 166.8], [0, -0.656559, 0.754275, 0], [0,0,0,0], [9E9, 9E9, 9E9, 9E9, 9E9, 9E9]];
	VAR robtarget Blend_231 := [[486.42, -39.25, 166.8], [0, -0.546305, 0.837586, 0], [0,0,0,0], [9E9, 9E9, 9E9, 9E9, 9E9, 9E9]];
	VAR robtarget Blend_232 := [[487.3, -38.19, 166.8], [0, -0.425618, 0.904903, 0], [0,0,0,0], [9E9, 9E9, 9E9, 9E9, 9E9, 9E9]];
	VAR robtarget Blend_233 := [[488.44, -37.41, 166.8], [0, -0.296803, 0.954939, 0], [0,0,0,0], [9E9, 9E9, 9E9, 9E9, 9E9, 9E9]];
	VAR robtarget Blend_234 := [[489.74, -36.96, 166.8], [0, -0.162321, 0.986738, 0], [0,0,0,0], [9E9, 9E9, 9E9, 9E9, 9E9, 9E9]];
	VAR robtarget Blend_235 := [[491.12, -36.9, 166.8], [0, -0.024738, 0.999694, 0], [0,0,0,0], [9E9, 9E9, 9E9, 9E9, 9E9, 9E9]];
	VAR robtarget Blend_236 := [[492.46, -37.21, 166.8], [0, 0.113317, 0.993559, 0], [0,0,0,0], [9E9, 9E9, 9E9, 9E9, 9E9, 9E9]];
	VAR robtarget Blend_237 := [[498.96, -39.79, 166.8], [0, 0.188307, 0.98211, 0], [0,0,0,0], [9E9, 9E9, 9E9, 9E9, 9E9, 9E9]];
	VAR robtarget Blend_238 := [[505.39, -42.56, 166.8], [0, 0.201503, 0.979488, 0], [0,0,0,0], [9E9, 9E9, 9E9, 9E9, 9E9, 9E9]];
	VAR robtarget Blend_239 := [[511.74, -45.49, 166.8], [0, 0.214661, 0.976689, 0], [0,0,0,0], [9E9, 9E9, 9E9, 9E9, 9E9, 9E9]];
	VAR robtarget Blend_240 := [[512.86, -46.23, 166.8], [0, 0.286391, 0.958113, 0], [0,0,0,0], [9E9, 9E9, 9E9, 9E9, 9E9, 9E9]];
	VAR robtarget Blend_241 := [[513.75, -47.24, 166.8], [0, 0.412531, 0.910944, 0], [0,0,0,0], [9E9, 9E9, 9E9, 9E9, 9E9, 9E9]];
	VAR robtarget Blend_242 := [[514.34, -48.45, 166.8], [0, 0.531189, 0.847254, 0], [0,0,0,0], [9E9, 9E9, 9E9, 9E9, 9E9, 9E9]];
	VAR robtarget Blend_243 := [[514.58, -49.77, 166.8], [0, 0.640213, 0.768197, 0], [0,0,0,0], [9E9, 9E9, 9E9, 9E9, 9E9, 9E9]];
	VAR robtarget Blend_244 := [[514.46, -51.11, 166.8], [0, 0.737626, 0.675209, 0], [0,0,0,0], [9E9, 9E9, 9E9, 9E9, 9E9, 9E9]];
	VAR robtarget Blend_245 := [[513.99, -52.36, 166.8], [0, 0.821662, 0.569975, 0], [0,0,0,0], [9E9, 9E9, 9E9, 9E9, 9E9, 9E9]];
	VAR robtarget Blend_246 := [[513.2, -53.45, 166.8], [0, 0.890795, 0.454404, 0], [0,0,0,0], [9E9, 9E9, 9E9, 9E9, 9E9, 9E9]];
	VAR robtarget Blend_247 := [[512.15, -54.29, 166.8], [0, 0.943774, 0.330592, 0], [0,0,0,0], [9E9, 9E9, 9E9, 9E9, 9E9, 9E9]];
	VAR robtarget Blend_248 := [[510.91, -54.82, 166.8], [0, 0.979635, 0.200784, 0], [0,0,0,0], [9E9, 9E9, 9E9, 9E9, 9E9, 9E9]];
	VAR robtarget Blend_249 := [[509.58, -55, 166.8], [0, 0.99773, 0.067335, 0], [0,0,0,0], [9E9, 9E9, 9E9, 9E9, 9E9, 9E9]];
	VAR robtarget Blend_250 := [[490.68, -55, 166.8], [0, 1, 0, 0], [0,0,0,0], [9E9, 9E9, 9E9, 9E9, 9E9, 9E9]];
	VAR robtarget Blend_251 := [[489.38, -54.83, 166.8], [0, 0.997859, -0.065403, 0], [0,0,0,0], [9E9, 9E9, 9E9, 9E9, 9E9, 9E9]];
	VAR robtarget Blend_252 := [[488.18, -54.33, 166.8], [0, 0.980785, -0.19509, 0], [0,0,0,0], [9E9, 9E9, 9E9, 9E9, 9E9, 9E9]];
	VAR robtarget Blend_253 := [[487.14, -53.54, 166.8], [0, 0.94693, -0.321439, 0], [0,0,0,0], [9E9, 9E9, 9E9, 9E9, 9E9, 9E9]];
	VAR robtarget Blend_254 := [[486.35, -52.5, 166.8], [0, 0.896873, -0.442289, 0], [0,0,0,0], [9E9, 9E9, 9E9, 9E9, 9E9, 9E9]];
	VAR robtarget Blend_255 := [[485.85, -51.29, 166.8], [0, 0.83147, -0.55557, 0], [0,0,0,0], [9E9, 9E9, 9E9, 9E9, 9E9, 9E9]];
	VAR robtarget Blend_256 := [[485.68, -50, 166.8], [0, 0.75184, -0.659346, 0], [0,0,0,0], [9E9, 9E9, 9E9, 9E9, 9E9, 9E9]];
	VAR robtarget Blend_257 := [[485.68, -38.29, 166.8], [0, 0.707107, -0.707107, 0], [0,0,0,0], [9E9, 9E9, 9E9, 9E9, 9E9, 9E9]];
	VAR robtarget Blend_258 := [[485.52, -37.05, 166.8], [0, 0.749769, -0.661699, 0], [0,0,0,0], [9E9, 9E9, 9E9, 9E9, 9E9, 9E9]];
	VAR robtarget Blend_259 := [[485.07, -35.9, 166.8], [0, 0.826208, -0.563365, 0], [0,0,0,0], [9E9, 9E9, 9E9, 9E9, 9E9, 9E9]];
	VAR robtarget Blend_260 := [[484.34, -34.89, 166.8], [0, 0.88983, -0.456292, 0], [0,0,0,0], [9E9, 9E9, 9E9, 9E9, 9E9, 9E9]];
	VAR robtarget Blend_261 := [[483.39, -34.09, 166.8], [0, 0.939649, -0.34214, 0], [0,0,0,0], [9E9, 9E9, 9E9, 9E9, 9E9, 9E9]];
	VAR robtarget Blend_262 := [[482.27, -33.55, 166.8], [0, 0.974891, -0.222681, 0], [0,0,0,0], [9E9, 9E9, 9E9, 9E9, 9E9, 9E9]];
	VAR robtarget Blend_263 := [[471.29, -30.01, 166.8], [0, 0.987881, -0.15521, 0], [0,0,0,0], [9E9, 9E9, 9E9, 9E9, 9E9, 9E9]];
	VAR robtarget Blend_264 := [[460.23, -26.76, 166.8], [0, 0.989789, -0.142537, 0], [0,0,0,0], [9E9, 9E9, 9E9, 9E9, 9E9, 9E9]];
	VAR robtarget Blend_265 := [[449.08, -23.79, 166.8], [0, 0.991535, -0.12984, 0], [0,0,0,0], [9E9, 9E9, 9E9, 9E9, 9E9, 9E9]];
	VAR robtarget Blend_266 := [[437.86, -21.1, 166.8], [0, 0.993118, -0.117122, 0], [0,0,0,0], [9E9, 9E9, 9E9, 9E9, 9E9, 9E9]];
	VAR robtarget Blend_267 := [[426.58, -18.71, 166.8], [0, 0.994537, -0.104385, 0], [0,0,0,0], [9E9, 9E9, 9E9, 9E9, 9E9, 9E9]];
	VAR robtarget Blend_268 := [[415.24, -16.6, 166.8], [0, 0.995793, -0.09163, 0], [0,0,0,0], [9E9, 9E9, 9E9, 9E9, 9E9, 9E9]];
	VAR robtarget Blend_269 := [[403.85, -14.79, 166.8], [0, 0.996886, -0.078861, 0], [0,0,0,0], [9E9, 9E9, 9E9, 9E9, 9E9, 9E9]];
	VAR robtarget Blend_270 := [[400.72, -14.53, 166.8], [0, 0.999142, -0.041415, 0], [0,0,0,0], [9E9, 9E9, 9E9, 9E9, 9E9, 9E9]];
	VAR robtarget Blend_271 := [[397.59, -14.66, 166.8], [0, 0.999784, 0.020787, 0], [0,0,0,0], [9E9, 9E9, 9E9, 9E9, 9E9, 9E9]];
	VAR robtarget Blend_272 := [[394.5, -15.18, 166.8], [0, 0.996557, 0.082908, 0], [0,0,0,0], [9E9, 9E9, 9E9, 9E9, 9E9, 9E9]];
	VAR robtarget Blend_273 := [[391.5, -16.08, 166.8], [0, 0.989474, 0.144709, 0], [0,0,0,0], [9E9, 9E9, 9E9, 9E9, 9E9, 9E9]];
	VAR robtarget Blend_274 := [[388.63, -17.34, 166.8], [0, 0.978563, 0.20595, 0], [0,0,0,0], [9E9, 9E9, 9E9, 9E9, 9E9, 9E9]];
	VAR robtarget Blend_275 := [[385.94, -18.95, 166.8], [0, 0.963864, 0.266394, 0], [0,0,0,0], [9E9, 9E9, 9E9, 9E9, 9E9, 9E9]];
	VAR robtarget Blend_276 := [[383.47, -20.88, 166.8], [0, 0.945436, 0.325807, 0], [0,0,0,0], [9E9, 9E9, 9E9, 9E9, 9E9, 9E9]];
	VAR robtarget Blend_277 := [[381.26, -23.1, 166.8], [0, 0.92335, 0.383959, 0], [0,0,0,0], [9E9, 9E9, 9E9, 9E9, 9E9, 9E9]];
	VAR robtarget Blend_278 := [[379.34, -25.58, 166.8], [0, 0.897691, 0.440626, 0], [0,0,0,0], [9E9, 9E9, 9E9, 9E9, 9E9, 9E9]];
	VAR robtarget Blend_279 := [[377.75, -28.28, 166.8], [0, 0.868558, 0.495587, 0], [0,0,0,0], [9E9, 9E9, 9E9, 9E9, 9E9, 9E9]];
	VAR robtarget Blend_280 := [[376.5, -31.16, 166.8], [0, 0.836064, 0.548631, 0], [0,0,0,0], [9E9, 9E9, 9E9, 9E9, 9E9, 9E9]];
	VAR robtarget Blend_281 := [[375.62, -34.17, 166.8], [0, 0.800336, 0.599552, 0], [0,0,0,0], [9E9, 9E9, 9E9, 9E9, 9E9, 9E9]];
	VAR robtarget Blend_282 := [[375.12, -37.26, 166.8], [0, 0.76151, 0.648153, 0], [0,0,0,0], [9E9, 9E9, 9E9, 9E9, 9E9, 9E9]];
	VAR robtarget Blend_283 := [[375.01, -40.39, 166.8], [0, 0.719737, 0.694246, 0], [0,0,0,0], [9E9, 9E9, 9E9, 9E9, 9E9, 9E9]];
	VAR robtarget Blend_284 := [[375.24, -42.69, 166.8], [0, 0.669623, 0.742702, 0], [0,0,0,0], [9E9, 9E9, 9E9, 9E9, 9E9, 9E9]];
	VAR robtarget Blend_285 := [[375.83, -44.93, 166.8], [0, 0.610323, 0.792152, 0], [0,0,0,0], [9E9, 9E9, 9E9, 9E9, 9E9, 9E9]];
	VAR robtarget Blend_286 := [[376.76, -47.05, 166.8], [0, 0.547386, 0.83688, 0], [0,0,0,0], [9E9, 9E9, 9E9, 9E9, 9E9, 9E9]];
	VAR robtarget Blend_287 := [[378, -49.01, 166.8], [0, 0.481185, 0.876619, 0], [0,0,0,0], [9E9, 9E9, 9E9, 9E9, 9E9, 9E9]];
	VAR robtarget Blend_288 := [[379.53, -50.74, 166.8], [0, 0.412115, 0.911132, 0], [0,0,0,0], [9E9, 9E9, 9E9, 9E9, 9E9, 9E9]];
	VAR robtarget Blend_289 := [[381.31, -52.23, 166.8], [0, 0.340588, 0.940213, 0], [0,0,0,0], [9E9, 9E9, 9E9, 9E9, 9E9, 9E9]];
	VAR robtarget Blend_290 := [[383.3, -53.42, 166.8], [0, 0.267031, 0.963688, 0], [0,0,0,0], [9E9, 9E9, 9E9, 9E9, 9E9, 9E9]];
	VAR robtarget Blend_291 := [[385.44, -54.29, 166.8], [0, 0.191882, 0.981418, 0], [0,0,0,0], [9E9, 9E9, 9E9, 9E9, 9E9, 9E9]];
	VAR robtarget Blend_292 := [[387.69, -54.82, 166.8], [0, 0.115588, 0.993297, 0], [0,0,0,0], [9E9, 9E9, 9E9, 9E9, 9E9, 9E9]];
	VAR robtarget Blend_293 := [[390, -55, 166.8], [0, 0.038606, 0.999255, 0], [0,0,0,0], [9E9, 9E9, 9E9, 9E9, 9E9, 9E9]];
	VAR robtarget Blend_294 := [[458, -55, 166.8], [0, 0, 1, 0], [0,0,0,0], [9E9, 9E9, 9E9, 9E9, 9E9, 9E9]];
	VAR robtarget Blend_295 := [[459.24, -55, 166.9], [0, 0, 1, 0], [0,0,0,0], [9E9, 9E9, 9E9, 9E9, 9E9, 9E9]];
	VAR robtarget Blend_296 := [[509.58, -55, 166.9], [0, 0, 1, 0], [0,0,0,0], [9E9, 9E9, 9E9, 9E9, 9E9, 9E9]];
	VAR robtarget Blend_297 := [[510.91, -54.82, 166.9], [0, -0.067335, 0.99773, 0], [0,0,0,0], [9E9, 9E9, 9E9, 9E9, 9E9, 9E9]];
	VAR robtarget Blend_298 := [[512.15, -54.29, 166.9], [0, -0.200784, 0.979635, 0], [0,0,0,0], [9E9, 9E9, 9E9, 9E9, 9E9, 9E9]];
	VAR robtarget Blend_299 := [[513.2, -53.45, 166.9], [0, -0.330592, 0.943774, 0], [0,0,0,0], [9E9, 9E9, 9E9, 9E9, 9E9, 9E9]];
	VAR robtarget Blend_300 := [[513.99, -52.36, 166.9], [0, -0.454404, 0.890795, 0], [0,0,0,0], [9E9, 9E9, 9E9, 9E9, 9E9, 9E9]];
	VAR robtarget Blend_301 := [[514.46, -51.11, 166.9], [0, -0.569975, 0.821662, 0], [0,0,0,0], [9E9, 9E9, 9E9, 9E9, 9E9, 9E9]];
	VAR robtarget Blend_302 := [[514.58, -49.77, 166.9], [0, -0.675209, 0.737626, 0], [0,0,0,0], [9E9, 9E9, 9E9, 9E9, 9E9, 9E9]];
	VAR robtarget Blend_303 := [[514.34, -48.45, 166.9], [0, 0.768197, -0.640213, 0], [0,0,0,0], [9E9, 9E9, 9E9, 9E9, 9E9, 9E9]];
	VAR robtarget Blend_304 := [[513.75, -47.24, 166.9], [0, 0.847254, -0.531189, 0], [0,0,0,0], [9E9, 9E9, 9E9, 9E9, 9E9, 9E9]];
	VAR robtarget Blend_305 := [[512.86, -46.23, 166.9], [0, 0.910944, -0.412531, 0], [0,0,0,0], [9E9, 9E9, 9E9, 9E9, 9E9, 9E9]];
	VAR robtarget Blend_306 := [[511.74, -45.49, 166.9], [0, 0.958113, -0.286391, 0], [0,0,0,0], [9E9, 9E9, 9E9, 9E9, 9E9, 9E9]];
	VAR robtarget Blend_307 := [[504.62, -42.21, 166.9], [0, 0.976863, -0.213866, 0], [0,0,0,0], [9E9, 9E9, 9E9, 9E9, 9E9, 9E9]];
	VAR robtarget Blend_308 := [[497.4, -39.15, 166.9], [0, 0.979977, -0.19911, 0], [0,0,0,0], [9E9, 9E9, 9E9, 9E9, 9E9, 9E9]];
	VAR robtarget Blend_309 := [[490.09, -36.31, 166.9], [0, 0.982868, -0.184309, 0], [0,0,0,0], [9E9, 9E9, 9E9, 9E9, 9E9, 9E9]];
	VAR robtarget Blend_310 := [[482.69, -33.69, 166.9], [0, 0.985536, -0.169465, 0], [0,0,0,0], [9E9, 9E9, 9E9, 9E9, 9E9, 9E9]];
	VAR robtarget Blend_311 := [[470.23, -29.69, 166.9], [0, 0.987939, -0.154846, 0], [0,0,0,0], [9E9, 9E9, 9E9, 9E9, 9E9, 9E9]];
	VAR robtarget Blend_312 := [[457.65, -26.04, 166.9], [0, 0.990087, -0.140456, 0], [0,0,0,0], [9E9, 9E9, 9E9, 9E9, 9E9, 9E9]];
	VAR robtarget Blend_313 := [[444.97, -22.77, 166.9], [0, 0.992026, -0.126037, 0], [0,0,0,0], [9E9, 9E9, 9E9, 9E9, 9E9, 9E9]];
	VAR robtarget Blend_314 := [[443.69, -22.63, 166.9], [0, 0.998516, -0.054464, 0], [0,0,0,0], [9E9, 9E9, 9E9, 9E9, 9E9, 9E9]];
	VAR robtarget Blend_315 := [[442.42, -22.82, 166.9], [0, 0.99721, 0.074653, 0], [0,0,0,0], [9E9, 9E9, 9E9, 9E9, 9E9, 9E9]];
	VAR robtarget Blend_316 := [[441.24, -23.33, 166.9], [0, 0.979277, 0.202526, 0], [0,0,0,0], [9E9, 9E9, 9E9, 9E9, 9E9, 9E9]];
	VAR robtarget Blend_317 := [[440.22, -24.13, 166.9], [0, 0.945017, 0.327022, 0], [0,0,0,0], [9E9, 9E9, 9E9, 9E9, 9E9, 9E9]];
	VAR robtarget Blend_318 := [[439.45, -25.16, 166.9], [0, 0.895, 0.446066, 0], [0,0,0,0], [9E9, 9E9, 9E9, 9E9, 9E9, 9E9]];
	VAR robtarget Blend_319 := [[438.96, -26.35, 166.9], [0, 0.830061, 0.557673, 0], [0,0,0,0], [9E9, 9E9, 9E9, 9E9, 9E9, 9E9]];
	VAR robtarget Blend_320 := [[438.79, -27.63, 166.9], [0, 0.751282, 0.659981, 0], [0,0,0,0], [9E9, 9E9, 9E9, 9E9, 9E9, 9E9]];
	VAR robtarget Blend_321 := [[438.79, -50, 166.9], [0, 0.707105, 0.707108, 0], [0,0,0,0], [9E9, 9E9, 9E9, 9E9, 9E9, 9E9]];
	VAR robtarget Blend_322 := [[438.62, -51.29, 166.9], [0, 0.751838, 0.659347, 0], [0,0,0,0], [9E9, 9E9, 9E9, 9E9, 9E9, 9E9]];
	VAR robtarget Blend_323 := [[438.12, -52.5, 166.9], [0, 0.831469, 0.555572, 0], [0,0,0,0], [9E9, 9E9, 9E9, 9E9, 9E9, 9E9]];
	VAR robtarget Blend_324 := [[437.33, -53.54, 166.9], [0, 0.896872, 0.44229, 0], [0,0,0,0], [9E9, 9E9, 9E9, 9E9, 9E9, 9E9]];
	VAR robtarget Blend_325 := [[436.29, -54.33, 166.9], [0, 0.94693, 0.32144, 0], [0,0,0,0], [9E9, 9E9, 9E9, 9E9, 9E9, 9E9]];
	VAR robtarget Blend_326 := [[435.09, -54.83, 166.9], [0, 0.980785, 0.195091, 0], [0,0,0,0], [9E9, 9E9, 9E9, 9E9, 9E9, 9E9]];
	VAR robtarget Blend_327 := [[433.79, -55, 166.9], [0, 0.997859, 0.065403, 0], [0,0,0,0], [9E9, 9E9, 9E9, 9E9, 9E9, 9E9]];
	VAR robtarget Blend_328 := [[390, -55, 166.9], [0, 1, 0, 0], [0,0,0,0], [9E9, 9E9, 9E9, 9E9, 9E9, 9E9]];
	VAR robtarget Blend_329 := [[387.69, -54.82, 166.9], [0, 0.999255, -0.038606, 0], [0,0,0,0], [9E9, 9E9, 9E9, 9E9, 9E9, 9E9]];
	VAR robtarget Blend_330 := [[385.44, -54.29, 166.9], [0, 0.993297, -0.115588, 0], [0,0,0,0], [9E9, 9E9, 9E9, 9E9, 9E9, 9E9]];
	VAR robtarget Blend_331 := [[383.3, -53.42, 166.9], [0, 0.981418, -0.191882, 0], [0,0,0,0], [9E9, 9E9, 9E9, 9E9, 9E9, 9E9]];
	VAR robtarget Blend_332 := [[381.31, -52.23, 166.9], [0, 0.963688, -0.267031, 0], [0,0,0,0], [9E9, 9E9, 9E9, 9E9, 9E9, 9E9]];
	VAR robtarget Blend_333 := [[379.53, -50.74, 166.9], [0, 0.940213, -0.340588, 0], [0,0,0,0], [9E9, 9E9, 9E9, 9E9, 9E9, 9E9]];
	VAR robtarget Blend_334 := [[378, -49.01, 166.9], [0, 0.911132, -0.412115, 0], [0,0,0,0], [9E9, 9E9, 9E9, 9E9, 9E9, 9E9]];
	VAR robtarget Blend_335 := [[376.76, -47.05, 166.9], [0, 0.876619, -0.481185, 0], [0,0,0,0], [9E9, 9E9, 9E9, 9E9, 9E9, 9E9]];
	VAR robtarget Blend_336 := [[375.83, -44.93, 166.9], [0, 0.83688, -0.547386, 0], [0,0,0,0], [9E9, 9E9, 9E9, 9E9, 9E9, 9E9]];
	VAR robtarget Blend_337 := [[375.24, -42.69, 166.9], [0, 0.792152, -0.610323, 0], [0,0,0,0], [9E9, 9E9, 9E9, 9E9, 9E9, 9E9]];
	VAR robtarget Blend_338 := [[375.01, -40.39, 166.9], [0, 0.742702, -0.669623, 0], [0,0,0,0], [9E9, 9E9, 9E9, 9E9, 9E9, 9E9]];
	VAR robtarget Blend_339 := [[375.12, -37.26, 166.9], [0, -0.694246, 0.719737, 0], [0,0,0,0], [9E9, 9E9, 9E9, 9E9, 9E9, 9E9]];
	VAR robtarget Blend_340 := [[375.62, -34.17, 166.9], [0, -0.648153, 0.76151, 0], [0,0,0,0], [9E9, 9E9, 9E9, 9E9, 9E9, 9E9]];
	VAR robtarget Blend_341 := [[376.5, -31.16, 166.9], [0, -0.599552, 0.800336, 0], [0,0,0,0], [9E9, 9E9, 9E9, 9E9, 9E9, 9E9]];
	VAR robtarget Blend_342 := [[377.75, -28.28, 166.9], [0, -0.548631, 0.836064, 0], [0,0,0,0], [9E9, 9E9, 9E9, 9E9, 9E9, 9E9]];
	VAR robtarget Blend_343 := [[379.34, -25.58, 166.9], [0, -0.495587, 0.868558, 0], [0,0,0,0], [9E9, 9E9, 9E9, 9E9, 9E9, 9E9]];
	VAR robtarget Blend_344 := [[381.26, -23.1, 166.9], [0, -0.440626, 0.897691, 0], [0,0,0,0], [9E9, 9E9, 9E9, 9E9, 9E9, 9E9]];
	VAR robtarget Blend_345 := [[383.47, -20.88, 166.9], [0, -0.383959, 0.92335, 0], [0,0,0,0], [9E9, 9E9, 9E9, 9E9, 9E9, 9E9]];
	VAR robtarget Blend_346 := [[385.94, -18.95, 166.9], [0, -0.325807, 0.945436, 0], [0,0,0,0], [9E9, 9E9, 9E9, 9E9, 9E9, 9E9]];
	VAR robtarget Blend_347 := [[388.63, -17.34, 166.9], [0, -0.266394, 0.963864, 0], [0,0,0,0], [9E9, 9E9, 9E9, 9E9, 9E9, 9E9]];
	VAR robtarget Blend_348 := [[391.5, -16.08, 166.9], [0, -0.20595, 0.978563, 0], [0,0,0,0], [9E9, 9E9, 9E9, 9E9, 9E9, 9E9]];
	VAR robtarget Blend_349 := [[394.5, -15.18, 166.9], [0, -0.144709, 0.989474, 0], [0,0,0,0], [9E9, 9E9, 9E9, 9E9, 9E9, 9E9]];
	VAR robtarget Blend_350 := [[397.59, -14.66, 166.9], [0, -0.082908, 0.996557, 0], [0,0,0,0], [9E9, 9E9, 9E9, 9E9, 9E9, 9E9]];
	VAR robtarget Blend_351 := [[400.72, -14.53, 166.9], [0, -0.020787, 0.999784, 0], [0,0,0,0], [9E9, 9E9, 9E9, 9E9, 9E9, 9E9]];
	VAR robtarget Blend_352 := [[403.85, -14.79, 166.9], [0, 0.041415, 0.999142, 0], [0,0,0,0], [9E9, 9E9, 9E9, 9E9, 9E9, 9E9]];
	VAR robtarget Blend_353 := [[414.23, -16.43, 166.9], [0, 0.078293, 0.99693, 0], [0,0,0,0], [9E9, 9E9, 9E9, 9E9, 9E9, 9E9]];
	VAR robtarget Blend_354 := [[424.57, -18.31, 166.9], [0, 0.089929, 0.995948, 0], [0,0,0,0], [9E9, 9E9, 9E9, 9E9, 9E9, 9E9]];
	VAR robtarget Blend_355 := [[434.86, -20.44, 166.9], [0, 0.101553, 0.99483, 0], [0,0,0,0], [9E9, 9E9, 9E9, 9E9, 9E9, 9E9]];
	VAR robtarget Blend_356 := [[436.13, -20.9, 166.9], [0, 0.174453, 0.984666, 0], [0,0,0,0], [9E9, 9E9, 9E9, 9E9, 9E9, 9E9]];
	VAR robtarget Blend_357 := [[437.23, -21.69, 166.9], [0, 0.305931, 0.952054, 0], [0,0,0,0], [9E9, 9E9, 9E9, 9E9, 9E9, 9E9]];
	VAR robtarget Blend_358 := [[438.08, -22.74, 166.9], [0, 0.431795, 0.901972, 0], [0,0,0,0], [9E9, 9E9, 9E9, 9E9, 9E9, 9E9]];
	VAR robtarget Blend_359 := [[438.61, -23.98, 166.9], [0, 0.549735, 0.835339, 0], [0,0,0,0], [9E9, 9E9, 9E9, 9E9, 9E9, 9E9]];
	VAR robtarget Blend_360 := [[438.79, -25.32, 166.9], [0, 0.657588, 0.753378, 0], [0,0,0,0], [9E9, 9E9, 9E9, 9E9, 9E9, 9E9]];
	VAR robtarget Blend_361 := [[438.79, -50, 166.9], [0, 0.707105, 0.707108, 0], [0,0,0,0], [9E9, 9E9, 9E9, 9E9, 9E9, 9E9]];
	VAR robtarget Blend_362 := [[438.96, -51.29, 166.9], [0, 0.659344, 0.751841, 0], [0,0,0,0], [9E9, 9E9, 9E9, 9E9, 9E9, 9E9]];
	VAR robtarget Blend_363 := [[439.46, -52.5, 166.9], [0, 0.555569, 0.831471, 0], [0,0,0,0], [9E9, 9E9, 9E9, 9E9, 9E9, 9E9]];
	VAR robtarget Blend_364 := [[440.26, -53.54, 166.9], [0, 0.442288, 0.896873, 0], [0,0,0,0], [9E9, 9E9, 9E9, 9E9, 9E9, 9E9]];
	VAR robtarget Blend_365 := [[441.29, -54.33, 166.9], [0, 0.321439, 0.94693, 0], [0,0,0,0], [9E9, 9E9, 9E9, 9E9, 9E9, 9E9]];
	VAR robtarget Blend_366 := [[442.5, -54.83, 166.9], [0, 0.19509, 0.980785, 0], [0,0,0,0], [9E9, 9E9, 9E9, 9E9, 9E9, 9E9]];
	VAR robtarget Blend_367 := [[443.79, -55, 166.9], [0, 0.065403, 0.997859, 0], [0,0,0,0], [9E9, 9E9, 9E9, 9E9, 9E9, 9E9]];
	VAR robtarget Blend_368 := [[458, -55, 166.9], [0, 0, 1, 0], [0,0,0,0], [9E9, 9E9, 9E9, 9E9, 9E9, 9E9]];
	VAR robtarget Blend_369 := [[459.24, -55, 167], [0, 0, 1, 0], [0,0,0,0], [9E9, 9E9, 9E9, 9E9, 9E9, 9E9]];
	VAR robtarget Blend_370 := [[480.68, -55, 167], [0, 0, 1, 0], [0,0,0,0], [9E9, 9E9, 9E9, 9E9, 9E9, 9E9]];
	VAR robtarget Blend_371 := [[481.97, -54.83, 167], [0, -0.065403, 0.997859, 0], [0,0,0,0], [9E9, 9E9, 9E9, 9E9, 9E9, 9E9]];
	VAR robtarget Blend_372 := [[483.18, -54.33, 167], [0, -0.19509, 0.980785, 0], [0,0,0,0], [9E9, 9E9, 9E9, 9E9, 9E9, 9E9]];
	VAR robtarget Blend_373 := [[484.21, -53.54, 167], [0, -0.321439, 0.94693, 0], [0,0,0,0], [9E9, 9E9, 9E9, 9E9, 9E9, 9E9]];
	VAR robtarget Blend_374 := [[485.01, -52.5, 167], [0, -0.442289, 0.896873, 0], [0,0,0,0], [9E9, 9E9, 9E9, 9E9, 9E9, 9E9]];
	VAR robtarget Blend_375 := [[485.51, -51.29, 167], [0, -0.55557, 0.83147, 0], [0,0,0,0], [9E9, 9E9, 9E9, 9E9, 9E9, 9E9]];
	VAR robtarget Blend_376 := [[485.68, -50, 167], [0, -0.659346, 0.75184, 0], [0,0,0,0], [9E9, 9E9, 9E9, 9E9, 9E9, 9E9]];
	VAR robtarget Blend_377 := [[485.68, -41.88, 167], [0, 0.707107, -0.707107, 0], [0,0,0,0], [9E9, 9E9, 9E9, 9E9, 9E9, 9E9]];
	VAR robtarget Blend_378 := [[485.87, -40.51, 167], [0, -0.656559, 0.754275, 0], [0,0,0,0], [9E9, 9E9, 9E9, 9E9, 9E9, 9E9]];
	VAR robtarget Blend_379 := [[486.42, -39.25, 167], [0, -0.546305, 0.837586, 0], [0,0,0,0], [9E9, 9E9, 9E9, 9E9, 9E9, 9E9]];
	VAR robtarget Blend_380 := [[487.3, -38.19, 167], [0, -0.425618, 0.904903, 0], [0,0,0,0], [9E9, 9E9, 9E9, 9E9, 9E9, 9E9]];
	VAR robtarget Blend_381 := [[488.44, -37.41, 167], [0, -0.296803, 0.954939, 0], [0,0,0,0], [9E9, 9E9, 9E9, 9E9, 9E9, 9E9]];
	VAR robtarget Blend_382 := [[489.74, -36.96, 167], [0, -0.162321, 0.986738, 0], [0,0,0,0], [9E9, 9E9, 9E9, 9E9, 9E9, 9E9]];
	VAR robtarget Blend_383 := [[491.12, -36.9, 167], [0, -0.024738, 0.999694, 0], [0,0,0,0], [9E9, 9E9, 9E9, 9E9, 9E9, 9E9]];
	VAR robtarget Blend_384 := [[492.46, -37.21, 167], [0, 0.113317, 0.993559, 0], [0,0,0,0], [9E9, 9E9, 9E9, 9E9, 9E9, 9E9]];
	VAR robtarget Blend_385 := [[498.96, -39.79, 167], [0, 0.188307, 0.98211, 0], [0,0,0,0], [9E9, 9E9, 9E9, 9E9, 9E9, 9E9]];
	VAR robtarget Blend_386 := [[505.39, -42.56, 167], [0, 0.201503, 0.979488, 0], [0,0,0,0], [9E9, 9E9, 9E9, 9E9, 9E9, 9E9]];
	VAR robtarget Blend_387 := [[511.74, -45.49, 167], [0, 0.214661, 0.976689, 0], [0,0,0,0], [9E9, 9E9, 9E9, 9E9, 9E9, 9E9]];
	VAR robtarget Blend_388 := [[512.86, -46.23, 167], [0, 0.286391, 0.958113, 0], [0,0,0,0], [9E9, 9E9, 9E9, 9E9, 9E9, 9E9]];
	VAR robtarget Blend_389 := [[513.75, -47.24, 167], [0, 0.412531, 0.910944, 0], [0,0,0,0], [9E9, 9E9, 9E9, 9E9, 9E9, 9E9]];
	VAR robtarget Blend_390 := [[514.34, -48.45, 167], [0, 0.531189, 0.847254, 0], [0,0,0,0], [9E9, 9E9, 9E9, 9E9, 9E9, 9E9]];
	VAR robtarget Blend_391 := [[514.58, -49.77, 167], [0, 0.640213, 0.768197, 0], [0,0,0,0], [9E9, 9E9, 9E9, 9E9, 9E9, 9E9]];
	VAR robtarget Blend_392 := [[514.46, -51.11, 167], [0, 0.737626, 0.675209, 0], [0,0,0,0], [9E9, 9E9, 9E9, 9E9, 9E9, 9E9]];
	VAR robtarget Blend_393 := [[513.99, -52.36, 167], [0, 0.821662, 0.569975, 0], [0,0,0,0], [9E9, 9E9, 9E9, 9E9, 9E9, 9E9]];
	VAR robtarget Blend_394 := [[513.2, -53.45, 167], [0, 0.890795, 0.454404, 0], [0,0,0,0], [9E9, 9E9, 9E9, 9E9, 9E9, 9E9]];
	VAR robtarget Blend_395 := [[512.15, -54.29, 167], [0, 0.943774, 0.330592, 0], [0,0,0,0], [9E9, 9E9, 9E9, 9E9, 9E9, 9E9]];
	VAR robtarget Blend_396 := [[510.91, -54.82, 167], [0, 0.979635, 0.200784, 0], [0,0,0,0], [9E9, 9E9, 9E9, 9E9, 9E9, 9E9]];
	VAR robtarget Blend_397 := [[509.58, -55, 167], [0, 0.99773, 0.067335, 0], [0,0,0,0], [9E9, 9E9, 9E9, 9E9, 9E9, 9E9]];
	VAR robtarget Blend_398 := [[490.68, -55, 167], [0, 1, 0, 0], [0,0,0,0], [9E9, 9E9, 9E9, 9E9, 9E9, 9E9]];
	VAR robtarget Blend_399 := [[489.38, -54.83, 167], [0, 0.997859, -0.065403, 0], [0,0,0,0], [9E9, 9E9, 9E9, 9E9, 9E9, 9E9]];
	VAR robtarget Blend_400 := [[488.18, -54.33, 167], [0, 0.980785, -0.19509, 0], [0,0,0,0], [9E9, 9E9, 9E9, 9E9, 9E9, 9E9]];
	VAR robtarget Blend_401 := [[487.14, -53.54, 167], [0, 0.94693, -0.321439, 0], [0,0,0,0], [9E9, 9E9, 9E9, 9E9, 9E9, 9E9]];
	VAR robtarget Blend_402 := [[486.35, -52.5, 167], [0, 0.896873, -0.442289, 0], [0,0,0,0], [9E9, 9E9, 9E9, 9E9, 9E9, 9E9]];
	VAR robtarget Blend_403 := [[485.85, -51.29, 167], [0, 0.83147, -0.55557, 0], [0,0,0,0], [9E9, 9E9, 9E9, 9E9, 9E9, 9E9]];
	VAR robtarget Blend_404 := [[485.68, -50, 167], [0, 0.75184, -0.659346, 0], [0,0,0,0], [9E9, 9E9, 9E9, 9E9, 9E9, 9E9]];
	VAR robtarget Blend_405 := [[485.68, -38.29, 167], [0, 0.707107, -0.707107, 0], [0,0,0,0], [9E9, 9E9, 9E9, 9E9, 9E9, 9E9]];
	VAR robtarget Blend_406 := [[485.52, -37.05, 167], [0, 0.749769, -0.661699, 0], [0,0,0,0], [9E9, 9E9, 9E9, 9E9, 9E9, 9E9]];
	VAR robtarget Blend_407 := [[485.07, -35.9, 167], [0, 0.826208, -0.563365, 0], [0,0,0,0], [9E9, 9E9, 9E9, 9E9, 9E9, 9E9]];
	VAR robtarget Blend_408 := [[484.34, -34.89, 167], [0, 0.88983, -0.456292, 0], [0,0,0,0], [9E9, 9E9, 9E9, 9E9, 9E9, 9E9]];
	VAR robtarget Blend_409 := [[483.39, -34.09, 167], [0, 0.939649, -0.34214, 0], [0,0,0,0], [9E9, 9E9, 9E9, 9E9, 9E9, 9E9]];
	VAR robtarget Blend_410 := [[482.27, -33.55, 167], [0, 0.974891, -0.222681, 0], [0,0,0,0], [9E9, 9E9, 9E9, 9E9, 9E9, 9E9]];
	VAR robtarget Blend_411 := [[471.29, -30.01, 167], [0, 0.987881, -0.15521, 0], [0,0,0,0], [9E9, 9E9, 9E9, 9E9, 9E9, 9E9]];
	VAR robtarget Blend_412 := [[460.23, -26.76, 167], [0, 0.989789, -0.142537, 0], [0,0,0,0], [9E9, 9E9, 9E9, 9E9, 9E9, 9E9]];
	VAR robtarget Blend_413 := [[449.08, -23.79, 167], [0, 0.991535, -0.12984, 0], [0,0,0,0], [9E9, 9E9, 9E9, 9E9, 9E9, 9E9]];
	VAR robtarget Blend_414 := [[437.86, -21.1, 167], [0, 0.993118, -0.117122, 0], [0,0,0,0], [9E9, 9E9, 9E9, 9E9, 9E9, 9E9]];
	VAR robtarget Blend_415 := [[426.58, -18.71, 167], [0, 0.994537, -0.104385, 0], [0,0,0,0], [9E9, 9E9, 9E9, 9E9, 9E9, 9E9]];
	VAR robtarget Blend_416 := [[415.24, -16.6, 167], [0, 0.995793, -0.09163, 0], [0,0,0,0], [9E9, 9E9, 9E9, 9E9, 9E9, 9E9]];
	VAR robtarget Blend_417 := [[403.85, -14.79, 167], [0, 0.996886, -0.078861, 0], [0,0,0,0], [9E9, 9E9, 9E9, 9E9, 9E9, 9E9]];
	VAR robtarget Blend_418 := [[400.72, -14.53, 167], [0, 0.999142, -0.041415, 0], [0,0,0,0], [9E9, 9E9, 9E9, 9E9, 9E9, 9E9]];
	VAR robtarget Blend_419 := [[397.59, -14.66, 167], [0, 0.999784, 0.020787, 0], [0,0,0,0], [9E9, 9E9, 9E9, 9E9, 9E9, 9E9]];
	VAR robtarget Blend_420 := [[394.5, -15.18, 167], [0, 0.996557, 0.082908, 0], [0,0,0,0], [9E9, 9E9, 9E9, 9E9, 9E9, 9E9]];
	VAR robtarget Blend_421 := [[391.5, -16.08, 167], [0, 0.989474, 0.144709, 0], [0,0,0,0], [9E9, 9E9, 9E9, 9E9, 9E9, 9E9]];
	VAR robtarget Blend_422 := [[388.63, -17.34, 167], [0, 0.978563, 0.20595, 0], [0,0,0,0], [9E9, 9E9, 9E9, 9E9, 9E9, 9E9]];
	VAR robtarget Blend_423 := [[385.94, -18.95, 167], [0, 0.963864, 0.266394, 0], [0,0,0,0], [9E9, 9E9, 9E9, 9E9, 9E9, 9E9]];
	VAR robtarget Blend_424 := [[383.47, -20.88, 167], [0, 0.945436, 0.325807, 0], [0,0,0,0], [9E9, 9E9, 9E9, 9E9, 9E9, 9E9]];
	VAR robtarget Blend_425 := [[381.26, -23.1, 167], [0, 0.92335, 0.383959, 0], [0,0,0,0], [9E9, 9E9, 9E9, 9E9, 9E9, 9E9]];
	VAR robtarget Blend_426 := [[379.34, -25.58, 167], [0, 0.897691, 0.440626, 0], [0,0,0,0], [9E9, 9E9, 9E9, 9E9, 9E9, 9E9]];
	VAR robtarget Blend_427 := [[377.75, -28.28, 167], [0, 0.868558, 0.495587, 0], [0,0,0,0], [9E9, 9E9, 9E9, 9E9, 9E9, 9E9]];
	VAR robtarget Blend_428 := [[376.5, -31.16, 167], [0, 0.836064, 0.548631, 0], [0,0,0,0], [9E9, 9E9, 9E9, 9E9, 9E9, 9E9]];
	VAR robtarget Blend_429 := [[375.62, -34.17, 167], [0, 0.800336, 0.599552, 0], [0,0,0,0], [9E9, 9E9, 9E9, 9E9, 9E9, 9E9]];
	VAR robtarget Blend_430 := [[375.12, -37.26, 167], [0, 0.76151, 0.648153, 0], [0,0,0,0], [9E9, 9E9, 9E9, 9E9, 9E9, 9E9]];
	VAR robtarget Blend_431 := [[375.01, -40.39, 167], [0, 0.719737, 0.694246, 0], [0,0,0,0], [9E9, 9E9, 9E9, 9E9, 9E9, 9E9]];
	VAR robtarget Blend_432 := [[375.24, -42.69, 167], [0, 0.669623, 0.742702, 0], [0,0,0,0], [9E9, 9E9, 9E9, 9E9, 9E9, 9E9]];
	VAR robtarget Blend_433 := [[375.83, -44.93, 167], [0, 0.610323, 0.792152, 0], [0,0,0,0], [9E9, 9E9, 9E9, 9E9, 9E9, 9E9]];
	VAR robtarget Blend_434 := [[376.76, -47.05, 167], [0, 0.547386, 0.83688, 0], [0,0,0,0], [9E9, 9E9, 9E9, 9E9, 9E9, 9E9]];
	VAR robtarget Blend_435 := [[378, -49.01, 167], [0, 0.481185, 0.876619, 0], [0,0,0,0], [9E9, 9E9, 9E9, 9E9, 9E9, 9E9]];
	VAR robtarget Blend_436 := [[379.53, -50.74, 167], [0, 0.412115, 0.911132, 0], [0,0,0,0], [9E9, 9E9, 9E9, 9E9, 9E9, 9E9]];
	VAR robtarget Blend_437 := [[381.31, -52.23, 167], [0, 0.340588, 0.940213, 0], [0,0,0,0], [9E9, 9E9, 9E9, 9E9, 9E9, 9E9]];
	VAR robtarget Blend_438 := [[383.3, -53.42, 167], [0, 0.267031, 0.963688, 0], [0,0,0,0], [9E9, 9E9, 9E9, 9E9, 9E9, 9E9]];
	VAR robtarget Blend_439 := [[385.44, -54.29, 167], [0, 0.191882, 0.981418, 0], [0,0,0,0], [9E9, 9E9, 9E9, 9E9, 9E9, 9E9]];
	VAR robtarget Blend_440 := [[387.69, -54.82, 167], [0, 0.115588, 0.993297, 0], [0,0,0,0], [9E9, 9E9, 9E9, 9E9, 9E9, 9E9]];
	VAR robtarget Blend_441 := [[390, -55, 167], [0, 0.038606, 0.999255, 0], [0,0,0,0], [9E9, 9E9, 9E9, 9E9, 9E9, 9E9]];
	VAR robtarget Blend_442 := [[458, -55, 167], [0, 0, 1, 0], [0,0,0,0], [9E9, 9E9, 9E9, 9E9, 9E9, 9E9]];
	VAR robtarget Blend_443 := [[459.24, -55, 167.1], [0, 0, 1, 0], [0,0,0,0], [9E9, 9E9, 9E9, 9E9, 9E9, 9E9]];
	VAR robtarget Blend_444 := [[509.58, -55, 167.1], [0, 0, 1, 0], [0,0,0,0], [9E9, 9E9, 9E9, 9E9, 9E9, 9E9]];
	VAR robtarget Blend_445 := [[510.91, -54.82, 167.1], [0, -0.067335, 0.99773, 0], [0,0,0,0], [9E9, 9E9, 9E9, 9E9, 9E9, 9E9]];
	VAR robtarget Blend_446 := [[512.15, -54.29, 167.1], [0, -0.200784, 0.979635, 0], [0,0,0,0], [9E9, 9E9, 9E9, 9E9, 9E9, 9E9]];
	VAR robtarget Blend_447 := [[513.2, -53.45, 167.1], [0, -0.330592, 0.943774, 0], [0,0,0,0], [9E9, 9E9, 9E9, 9E9, 9E9, 9E9]];
	VAR robtarget Blend_448 := [[513.99, -52.36, 167.1], [0, -0.454404, 0.890795, 0], [0,0,0,0], [9E9, 9E9, 9E9, 9E9, 9E9, 9E9]];
	VAR robtarget Blend_449 := [[514.46, -51.11, 167.1], [0, -0.569975, 0.821662, 0], [0,0,0,0], [9E9, 9E9, 9E9, 9E9, 9E9, 9E9]];
	VAR robtarget Blend_450 := [[514.58, -49.77, 167.1], [0, -0.675209, 0.737626, 0], [0,0,0,0], [9E9, 9E9, 9E9, 9E9, 9E9, 9E9]];
	VAR robtarget Blend_451 := [[514.34, -48.45, 167.1], [0, 0.768197, -0.640213, 0], [0,0,0,0], [9E9, 9E9, 9E9, 9E9, 9E9, 9E9]];
	VAR robtarget Blend_452 := [[513.75, -47.24, 167.1], [0, 0.847254, -0.531189, 0], [0,0,0,0], [9E9, 9E9, 9E9, 9E9, 9E9, 9E9]];
	VAR robtarget Blend_453 := [[512.86, -46.23, 167.1], [0, 0.910944, -0.412531, 0], [0,0,0,0], [9E9, 9E9, 9E9, 9E9, 9E9, 9E9]];
	VAR robtarget Blend_454 := [[511.74, -45.49, 167.1], [0, 0.958113, -0.286391, 0], [0,0,0,0], [9E9, 9E9, 9E9, 9E9, 9E9, 9E9]];
	VAR robtarget Blend_455 := [[504.62, -42.21, 167.1], [0, 0.976863, -0.213866, 0], [0,0,0,0], [9E9, 9E9, 9E9, 9E9, 9E9, 9E9]];
	VAR robtarget Blend_456 := [[497.4, -39.15, 167.1], [0, 0.979977, -0.19911, 0], [0,0,0,0], [9E9, 9E9, 9E9, 9E9, 9E9, 9E9]];
	VAR robtarget Blend_457 := [[490.09, -36.31, 167.1], [0, 0.982868, -0.184309, 0], [0,0,0,0], [9E9, 9E9, 9E9, 9E9, 9E9, 9E9]];
	VAR robtarget Blend_458 := [[482.69, -33.69, 167.1], [0, 0.985536, -0.169465, 0], [0,0,0,0], [9E9, 9E9, 9E9, 9E9, 9E9, 9E9]];
	VAR robtarget Blend_459 := [[470.23, -29.69, 167.1], [0, 0.987939, -0.154846, 0], [0,0,0,0], [9E9, 9E9, 9E9, 9E9, 9E9, 9E9]];
	VAR robtarget Blend_460 := [[457.65, -26.04, 167.1], [0, 0.990087, -0.140456, 0], [0,0,0,0], [9E9, 9E9, 9E9, 9E9, 9E9, 9E9]];
	VAR robtarget Blend_461 := [[444.97, -22.77, 167.1], [0, 0.992026, -0.126037, 0], [0,0,0,0], [9E9, 9E9, 9E9, 9E9, 9E9, 9E9]];
	VAR robtarget Blend_462 := [[443.69, -22.63, 167.1], [0, 0.998516, -0.054464, 0], [0,0,0,0], [9E9, 9E9, 9E9, 9E9, 9E9, 9E9]];
	VAR robtarget Blend_463 := [[442.42, -22.82, 167.1], [0, 0.99721, 0.074653, 0], [0,0,0,0], [9E9, 9E9, 9E9, 9E9, 9E9, 9E9]];
	VAR robtarget Blend_464 := [[441.24, -23.33, 167.1], [0, 0.979277, 0.202526, 0], [0,0,0,0], [9E9, 9E9, 9E9, 9E9, 9E9, 9E9]];
	VAR robtarget Blend_465 := [[440.22, -24.13, 167.1], [0, 0.945017, 0.327022, 0], [0,0,0,0], [9E9, 9E9, 9E9, 9E9, 9E9, 9E9]];
	VAR robtarget Blend_466 := [[439.45, -25.16, 167.1], [0, 0.895, 0.446066, 0], [0,0,0,0], [9E9, 9E9, 9E9, 9E9, 9E9, 9E9]];
	VAR robtarget Blend_467 := [[438.96, -26.35, 167.1], [0, 0.830061, 0.557673, 0], [0,0,0,0], [9E9, 9E9, 9E9, 9E9, 9E9, 9E9]];
	VAR robtarget Blend_468 := [[438.79, -27.63, 167.1], [0, 0.751282, 0.659981, 0], [0,0,0,0], [9E9, 9E9, 9E9, 9E9, 9E9, 9E9]];
	VAR robtarget Blend_469 := [[438.79, -50, 167.1], [0, 0.707105, 0.707108, 0], [0,0,0,0], [9E9, 9E9, 9E9, 9E9, 9E9, 9E9]];
	VAR robtarget Blend_470 := [[438.62, -51.29, 167.1], [0, 0.751838, 0.659347, 0], [0,0,0,0], [9E9, 9E9, 9E9, 9E9, 9E9, 9E9]];
	VAR robtarget Blend_471 := [[438.12, -52.5, 167.1], [0, 0.831469, 0.555572, 0], [0,0,0,0], [9E9, 9E9, 9E9, 9E9, 9E9, 9E9]];
	VAR robtarget Blend_472 := [[437.33, -53.54, 167.1], [0, 0.896872, 0.44229, 0], [0,0,0,0], [9E9, 9E9, 9E9, 9E9, 9E9, 9E9]];
	VAR robtarget Blend_473 := [[436.29, -54.33, 167.1], [0, 0.94693, 0.32144, 0], [0,0,0,0], [9E9, 9E9, 9E9, 9E9, 9E9, 9E9]];
	VAR robtarget Blend_474 := [[435.09, -54.83, 167.1], [0, 0.980785, 0.195091, 0], [0,0,0,0], [9E9, 9E9, 9E9, 9E9, 9E9, 9E9]];
	VAR robtarget Blend_475 := [[433.79, -55, 167.1], [0, 0.997859, 0.065403, 0], [0,0,0,0], [9E9, 9E9, 9E9, 9E9, 9E9, 9E9]];
	VAR robtarget Blend_476 := [[390, -55, 167.1], [0, 1, 0, 0], [0,0,0,0], [9E9, 9E9, 9E9, 9E9, 9E9, 9E9]];
	VAR robtarget Blend_477 := [[387.69, -54.82, 167.1], [0, 0.999255, -0.038606, 0], [0,0,0,0], [9E9, 9E9, 9E9, 9E9, 9E9, 9E9]];
	VAR robtarget Blend_478 := [[385.44, -54.29, 167.1], [0, 0.993297, -0.115588, 0], [0,0,0,0], [9E9, 9E9, 9E9, 9E9, 9E9, 9E9]];
	VAR robtarget Blend_479 := [[383.3, -53.42, 167.1], [0, 0.981418, -0.191882, 0], [0,0,0,0], [9E9, 9E9, 9E9, 9E9, 9E9, 9E9]];
	VAR robtarget Blend_480 := [[381.31, -52.23, 167.1], [0, 0.963688, -0.267031, 0], [0,0,0,0], [9E9, 9E9, 9E9, 9E9, 9E9, 9E9]];
	VAR robtarget Blend_481 := [[379.53, -50.74, 167.1], [0, 0.940213, -0.340588, 0], [0,0,0,0], [9E9, 9E9, 9E9, 9E9, 9E9, 9E9]];
	VAR robtarget Blend_482 := [[378, -49.01, 167.1], [0, 0.911132, -0.412115, 0], [0,0,0,0], [9E9, 9E9, 9E9, 9E9, 9E9, 9E9]];
	VAR robtarget Blend_483 := [[376.76, -47.05, 167.1], [0, 0.876619, -0.481185, 0], [0,0,0,0], [9E9, 9E9, 9E9, 9E9, 9E9, 9E9]];
	VAR robtarget Blend_484 := [[375.83, -44.93, 167.1], [0, 0.83688, -0.547386, 0], [0,0,0,0], [9E9, 9E9, 9E9, 9E9, 9E9, 9E9]];
	VAR robtarget Blend_485 := [[375.24, -42.69, 167.1], [0, 0.792152, -0.610323, 0], [0,0,0,0], [9E9, 9E9, 9E9, 9E9, 9E9, 9E9]];
	VAR robtarget Blend_486 := [[375.01, -40.39, 167.1], [0, 0.742702, -0.669623, 0], [0,0,0,0], [9E9, 9E9, 9E9, 9E9, 9E9, 9E9]];
	VAR robtarget Blend_487 := [[375.12, -37.26, 167.1], [0, -0.694246, 0.719737, 0], [0,0,0,0], [9E9, 9E9, 9E9, 9E9, 9E9, 9E9]];
	VAR robtarget Blend_488 := [[375.62, -34.17, 167.1], [0, -0.648153, 0.76151, 0], [0,0,0,0], [9E9, 9E9, 9E9, 9E9, 9E9, 9E9]];
	VAR robtarget Blend_489 := [[376.5, -31.16, 167.1], [0, -0.599552, 0.800336, 0], [0,0,0,0], [9E9, 9E9, 9E9, 9E9, 9E9, 9E9]];
	VAR robtarget Blend_490 := [[377.75, -28.28, 167.1], [0, -0.548631, 0.836064, 0], [0,0,0,0], [9E9, 9E9, 9E9, 9E9, 9E9, 9E9]];
	VAR robtarget Blend_491 := [[379.34, -25.58, 167.1], [0, -0.495587, 0.868558, 0], [0,0,0,0], [9E9, 9E9, 9E9, 9E9, 9E9, 9E9]];
	VAR robtarget Blend_492 := [[381.26, -23.1, 167.1], [0, -0.440626, 0.897691, 0], [0,0,0,0], [9E9, 9E9, 9E9, 9E9, 9E9, 9E9]];
	VAR robtarget Blend_493 := [[383.47, -20.88, 167.1], [0, -0.383959, 0.92335, 0], [0,0,0,0], [9E9, 9E9, 9E9, 9E9, 9E9, 9E9]];
	VAR robtarget Blend_494 := [[385.94, -18.95, 167.1], [0, -0.325807, 0.945436, 0], [0,0,0,0], [9E9, 9E9, 9E9, 9E9, 9E9, 9E9]];
	VAR robtarget Blend_495 := [[388.63, -17.34, 167.1], [0, -0.266394, 0.963864, 0], [0,0,0,0], [9E9, 9E9, 9E9, 9E9, 9E9, 9E9]];
	VAR robtarget Blend_496 := [[391.5, -16.08, 167.1], [0, -0.20595, 0.978563, 0], [0,0,0,0], [9E9, 9E9, 9E9, 9E9, 9E9, 9E9]];
	VAR robtarget Blend_497 := [[394.5, -15.18, 167.1], [0, -0.144709, 0.989474, 0], [0,0,0,0], [9E9, 9E9, 9E9, 9E9, 9E9, 9E9]];
	VAR robtarget Blend_498 := [[397.59, -14.66, 167.1], [0, -0.082908, 0.996557, 0], [0,0,0,0], [9E9, 9E9, 9E9, 9E9, 9E9, 9E9]];
	VAR robtarget Blend_499 := [[400.72, -14.53, 167.1], [0, -0.020787, 0.999784, 0], [0,0,0,0], [9E9, 9E9, 9E9, 9E9, 9E9, 9E9]];
	VAR robtarget Blend_500 := [[403.85, -14.79, 167.1], [0, 0.041415, 0.999142, 0], [0,0,0,0], [9E9, 9E9, 9E9, 9E9, 9E9, 9E9]];
	VAR robtarget Blend_501 := [[414.23, -16.43, 167.1], [0, 0.078293, 0.99693, 0], [0,0,0,0], [9E9, 9E9, 9E9, 9E9, 9E9, 9E9]];
	VAR robtarget Blend_502 := [[424.57, -18.31, 167.1], [0, 0.089929, 0.995948, 0], [0,0,0,0], [9E9, 9E9, 9E9, 9E9, 9E9, 9E9]];
	VAR robtarget Blend_503 := [[434.86, -20.44, 167.1], [0, 0.101553, 0.99483, 0], [0,0,0,0], [9E9, 9E9, 9E9, 9E9, 9E9, 9E9]];
	VAR robtarget Blend_504 := [[436.13, -20.9, 167.1], [0, 0.174453, 0.984666, 0], [0,0,0,0], [9E9, 9E9, 9E9, 9E9, 9E9, 9E9]];
	VAR robtarget Blend_505 := [[437.23, -21.69, 167.1], [0, 0.305931, 0.952054, 0], [0,0,0,0], [9E9, 9E9, 9E9, 9E9, 9E9, 9E9]];
	VAR robtarget Blend_506 := [[438.08, -22.74, 167.1], [0, 0.431795, 0.901972, 0], [0,0,0,0], [9E9, 9E9, 9E9, 9E9, 9E9, 9E9]];
	VAR robtarget Blend_507 := [[438.61, -23.98, 167.1], [0, 0.549735, 0.835339, 0], [0,0,0,0], [9E9, 9E9, 9E9, 9E9, 9E9, 9E9]];
	VAR robtarget Blend_508 := [[438.79, -25.32, 167.1], [0, 0.657588, 0.753378, 0], [0,0,0,0], [9E9, 9E9, 9E9, 9E9, 9E9, 9E9]];
	VAR robtarget Blend_509 := [[438.79, -50, 167.1], [0, 0.707105, 0.707108, 0], [0,0,0,0], [9E9, 9E9, 9E9, 9E9, 9E9, 9E9]];
	VAR robtarget Blend_510 := [[438.96, -51.29, 167.1], [0, 0.659344, 0.751841, 0], [0,0,0,0], [9E9, 9E9, 9E9, 9E9, 9E9, 9E9]];
	VAR robtarget Blend_511 := [[439.46, -52.5, 167.1], [0, 0.555569, 0.831471, 0], [0,0,0,0], [9E9, 9E9, 9E9, 9E9, 9E9, 9E9]];
	VAR robtarget Blend_512 := [[440.26, -53.54, 167.1], [0, 0.442288, 0.896873, 0], [0,0,0,0], [9E9, 9E9, 9E9, 9E9, 9E9, 9E9]];
	VAR robtarget Blend_513 := [[441.29, -54.33, 167.1], [0, 0.321439, 0.94693, 0], [0,0,0,0], [9E9, 9E9, 9E9, 9E9, 9E9, 9E9]];
	VAR robtarget Blend_514 := [[442.5, -54.83, 167.1], [0, 0.19509, 0.980785, 0], [0,0,0,0], [9E9, 9E9, 9E9, 9E9, 9E9, 9E9]];
	VAR robtarget Blend_515 := [[443.79, -55, 167.1], [0, 0.065403, 0.997859, 0], [0,0,0,0], [9E9, 9E9, 9E9, 9E9, 9E9, 9E9]];
	VAR robtarget Blend_516 := [[458, -55, 167.1], [0, 0, 1, 0], [0,0,0,0], [9E9, 9E9, 9E9, 9E9, 9E9, 9E9]];
	VAR robtarget Blend_517 := [[459.24, -55, 167.2], [0, 0, 1, 0], [0,0,0,0], [9E9, 9E9, 9E9, 9E9, 9E9, 9E9]];
	VAR robtarget Blend_518 := [[480.68, -55, 167.2], [0, 0, 1, 0], [0,0,0,0], [9E9, 9E9, 9E9, 9E9, 9E9, 9E9]];
	VAR robtarget Blend_519 := [[481.97, -54.83, 167.2], [0, -0.065403, 0.997859, 0], [0,0,0,0], [9E9, 9E9, 9E9, 9E9, 9E9, 9E9]];
	VAR robtarget Blend_520 := [[483.18, -54.33, 167.2], [0, -0.19509, 0.980785, 0], [0,0,0,0], [9E9, 9E9, 9E9, 9E9, 9E9, 9E9]];
	VAR robtarget Blend_521 := [[484.21, -53.54, 167.2], [0, -0.321439, 0.94693, 0], [0,0,0,0], [9E9, 9E9, 9E9, 9E9, 9E9, 9E9]];
	VAR robtarget Blend_522 := [[485.01, -52.5, 167.2], [0, -0.442289, 0.896873, 0], [0,0,0,0], [9E9, 9E9, 9E9, 9E9, 9E9, 9E9]];
	VAR robtarget Blend_523 := [[485.51, -51.29, 167.2], [0, -0.55557, 0.83147, 0], [0,0,0,0], [9E9, 9E9, 9E9, 9E9, 9E9, 9E9]];
	VAR robtarget Blend_524 := [[485.68, -50, 167.2], [0, -0.659346, 0.75184, 0], [0,0,0,0], [9E9, 9E9, 9E9, 9E9, 9E9, 9E9]];
	VAR robtarget Blend_525 := [[485.68, -41.88, 167.2], [0, 0.707107, -0.707107, 0], [0,0,0,0], [9E9, 9E9, 9E9, 9E9, 9E9, 9E9]];
	VAR robtarget Blend_526 := [[485.87, -40.51, 167.2], [0, -0.656559, 0.754275, 0], [0,0,0,0], [9E9, 9E9, 9E9, 9E9, 9E9, 9E9]];
	VAR robtarget Blend_527 := [[486.42, -39.25, 167.2], [0, -0.546305, 0.837586, 0], [0,0,0,0], [9E9, 9E9, 9E9, 9E9, 9E9, 9E9]];
	VAR robtarget Blend_528 := [[487.3, -38.19, 167.2], [0, -0.425618, 0.904903, 0], [0,0,0,0], [9E9, 9E9, 9E9, 9E9, 9E9, 9E9]];
	VAR robtarget Blend_529 := [[488.44, -37.41, 167.2], [0, -0.296803, 0.954939, 0], [0,0,0,0], [9E9, 9E9, 9E9, 9E9, 9E9, 9E9]];
	VAR robtarget Blend_530 := [[489.74, -36.96, 167.2], [0, -0.162321, 0.986738, 0], [0,0,0,0], [9E9, 9E9, 9E9, 9E9, 9E9, 9E9]];
	VAR robtarget Blend_531 := [[491.12, -36.9, 167.2], [0, -0.024738, 0.999694, 0], [0,0,0,0], [9E9, 9E9, 9E9, 9E9, 9E9, 9E9]];
	VAR robtarget Blend_532 := [[492.46, -37.21, 167.2], [0, 0.113317, 0.993559, 0], [0,0,0,0], [9E9, 9E9, 9E9, 9E9, 9E9, 9E9]];
	VAR robtarget Blend_533 := [[498.96, -39.79, 167.2], [0, 0.188307, 0.98211, 0], [0,0,0,0], [9E9, 9E9, 9E9, 9E9, 9E9, 9E9]];
	VAR robtarget Blend_534 := [[505.39, -42.56, 167.2], [0, 0.201503, 0.979488, 0], [0,0,0,0], [9E9, 9E9, 9E9, 9E9, 9E9, 9E9]];
	VAR robtarget Blend_535 := [[511.74, -45.49, 167.2], [0, 0.214661, 0.976689, 0], [0,0,0,0], [9E9, 9E9, 9E9, 9E9, 9E9, 9E9]];
	VAR robtarget Blend_536 := [[512.86, -46.23, 167.2], [0, 0.286391, 0.958113, 0], [0,0,0,0], [9E9, 9E9, 9E9, 9E9, 9E9, 9E9]];
	VAR robtarget Blend_537 := [[513.75, -47.24, 167.2], [0, 0.412531, 0.910944, 0], [0,0,0,0], [9E9, 9E9, 9E9, 9E9, 9E9, 9E9]];
	VAR robtarget Blend_538 := [[514.34, -48.45, 167.2], [0, 0.531189, 0.847254, 0], [0,0,0,0], [9E9, 9E9, 9E9, 9E9, 9E9, 9E9]];
	VAR robtarget Blend_539 := [[514.58, -49.77, 167.2], [0, 0.640213, 0.768197, 0], [0,0,0,0], [9E9, 9E9, 9E9, 9E9, 9E9, 9E9]];
	VAR robtarget Blend_540 := [[514.46, -51.11, 167.2], [0, 0.737626, 0.675209, 0], [0,0,0,0], [9E9, 9E9, 9E9, 9E9, 9E9, 9E9]];
	VAR robtarget Blend_541 := [[513.99, -52.36, 167.2], [0, 0.821662, 0.569975, 0], [0,0,0,0], [9E9, 9E9, 9E9, 9E9, 9E9, 9E9]];
	VAR robtarget Blend_542 := [[513.2, -53.45, 167.2], [0, 0.890795, 0.454404, 0], [0,0,0,0], [9E9, 9E9, 9E9, 9E9, 9E9, 9E9]];
	VAR robtarget Blend_543 := [[512.15, -54.29, 167.2], [0, 0.943774, 0.330592, 0], [0,0,0,0], [9E9, 9E9, 9E9, 9E9, 9E9, 9E9]];
	VAR robtarget Blend_544 := [[510.91, -54.82, 167.2], [0, 0.979635, 0.200784, 0], [0,0,0,0], [9E9, 9E9, 9E9, 9E9, 9E9, 9E9]];
	VAR robtarget Blend_545 := [[509.58, -55, 167.2], [0, 0.99773, 0.067335, 0], [0,0,0,0], [9E9, 9E9, 9E9, 9E9, 9E9, 9E9]];
	VAR robtarget Blend_546 := [[490.68, -55, 167.2], [0, 1, 0, 0], [0,0,0,0], [9E9, 9E9, 9E9, 9E9, 9E9, 9E9]];
	VAR robtarget Blend_547 := [[489.38, -54.83, 167.2], [0, 0.997859, -0.065403, 0], [0,0,0,0], [9E9, 9E9, 9E9, 9E9, 9E9, 9E9]];
	VAR robtarget Blend_548 := [[488.18, -54.33, 167.2], [0, 0.980785, -0.19509, 0], [0,0,0,0], [9E9, 9E9, 9E9, 9E9, 9E9, 9E9]];
	VAR robtarget Blend_549 := [[487.14, -53.54, 167.2], [0, 0.94693, -0.321439, 0], [0,0,0,0], [9E9, 9E9, 9E9, 9E9, 9E9, 9E9]];
	VAR robtarget Blend_550 := [[486.35, -52.5, 167.2], [0, 0.896873, -0.442289, 0], [0,0,0,0], [9E9, 9E9, 9E9, 9E9, 9E9, 9E9]];
	VAR robtarget Blend_551 := [[485.85, -51.29, 167.2], [0, 0.83147, -0.55557, 0], [0,0,0,0], [9E9, 9E9, 9E9, 9E9, 9E9, 9E9]];
	VAR robtarget Blend_552 := [[485.68, -50, 167.2], [0, 0.75184, -0.659346, 0], [0,0,0,0], [9E9, 9E9, 9E9, 9E9, 9E9, 9E9]];
	VAR robtarget Blend_553 := [[485.68, -38.29, 167.2], [0, 0.707107, -0.707107, 0], [0,0,0,0], [9E9, 9E9, 9E9, 9E9, 9E9, 9E9]];
	VAR robtarget Blend_554 := [[485.52, -37.05, 167.2], [0, 0.749769, -0.661699, 0], [0,0,0,0], [9E9, 9E9, 9E9, 9E9, 9E9, 9E9]];
	VAR robtarget Blend_555 := [[485.07, -35.9, 167.2], [0, 0.826208, -0.563365, 0], [0,0,0,0], [9E9, 9E9, 9E9, 9E9, 9E9, 9E9]];
	VAR robtarget Blend_556 := [[484.34, -34.89, 167.2], [0, 0.88983, -0.456292, 0], [0,0,0,0], [9E9, 9E9, 9E9, 9E9, 9E9, 9E9]];
	VAR robtarget Blend_557 := [[483.39, -34.09, 167.2], [0, 0.939649, -0.34214, 0], [0,0,0,0], [9E9, 9E9, 9E9, 9E9, 9E9, 9E9]];
	VAR robtarget Blend_558 := [[482.27, -33.55, 167.2], [0, 0.974891, -0.222681, 0], [0,0,0,0], [9E9, 9E9, 9E9, 9E9, 9E9, 9E9]];
	VAR robtarget Blend_559 := [[471.29, -30.01, 167.2], [0, 0.987881, -0.15521, 0], [0,0,0,0], [9E9, 9E9, 9E9, 9E9, 9E9, 9E9]];
	VAR robtarget Blend_560 := [[460.23, -26.76, 167.2], [0, 0.989789, -0.142537, 0], [0,0,0,0], [9E9, 9E9, 9E9, 9E9, 9E9, 9E9]];
	VAR robtarget Blend_561 := [[449.08, -23.79, 167.2], [0, 0.991535, -0.12984, 0], [0,0,0,0], [9E9, 9E9, 9E9, 9E9, 9E9, 9E9]];
	VAR robtarget Blend_562 := [[437.86, -21.1, 167.2], [0, 0.993118, -0.117122, 0], [0,0,0,0], [9E9, 9E9, 9E9, 9E9, 9E9, 9E9]];
	VAR robtarget Blend_563 := [[426.58, -18.71, 167.2], [0, 0.994537, -0.104385, 0], [0,0,0,0], [9E9, 9E9, 9E9, 9E9, 9E9, 9E9]];
	VAR robtarget Blend_564 := [[415.24, -16.6, 167.2], [0, 0.995793, -0.09163, 0], [0,0,0,0], [9E9, 9E9, 9E9, 9E9, 9E9, 9E9]];
	VAR robtarget Blend_565 := [[403.85, -14.79, 167.2], [0, 0.996886, -0.078861, 0], [0,0,0,0], [9E9, 9E9, 9E9, 9E9, 9E9, 9E9]];
	VAR robtarget Blend_566 := [[400.72, -14.53, 167.2], [0, 0.999142, -0.041415, 0], [0,0,0,0], [9E9, 9E9, 9E9, 9E9, 9E9, 9E9]];
	VAR robtarget Blend_567 := [[397.59, -14.66, 167.2], [0, 0.999784, 0.020787, 0], [0,0,0,0], [9E9, 9E9, 9E9, 9E9, 9E9, 9E9]];
	VAR robtarget Blend_568 := [[394.5, -15.18, 167.2], [0, 0.996557, 0.082908, 0], [0,0,0,0], [9E9, 9E9, 9E9, 9E9, 9E9, 9E9]];
	VAR robtarget Blend_569 := [[391.5, -16.08, 167.2], [0, 0.989474, 0.144709, 0], [0,0,0,0], [9E9, 9E9, 9E9, 9E9, 9E9, 9E9]];
	VAR robtarget Blend_570 := [[388.63, -17.34, 167.2], [0, 0.978563, 0.20595, 0], [0,0,0,0], [9E9, 9E9, 9E9, 9E9, 9E9, 9E9]];
	VAR robtarget Blend_571 := [[385.94, -18.95, 167.2], [0, 0.963864, 0.266394, 0], [0,0,0,0], [9E9, 9E9, 9E9, 9E9, 9E9, 9E9]];
	VAR robtarget Blend_572 := [[383.47, -20.88, 167.2], [0, 0.945436, 0.325807, 0], [0,0,0,0], [9E9, 9E9, 9E9, 9E9, 9E9, 9E9]];
	VAR robtarget Blend_573 := [[381.26, -23.1, 167.2], [0, 0.92335, 0.383959, 0], [0,0,0,0], [9E9, 9E9, 9E9, 9E9, 9E9, 9E9]];
	VAR robtarget Blend_574 := [[379.34, -25.58, 167.2], [0, 0.897691, 0.440626, 0], [0,0,0,0], [9E9, 9E9, 9E9, 9E9, 9E9, 9E9]];
	VAR robtarget Blend_575 := [[377.75, -28.28, 167.2], [0, 0.868558, 0.495587, 0], [0,0,0,0], [9E9, 9E9, 9E9, 9E9, 9E9, 9E9]];
	VAR robtarget Blend_576 := [[376.5, -31.16, 167.2], [0, 0.836064, 0.548631, 0], [0,0,0,0], [9E9, 9E9, 9E9, 9E9, 9E9, 9E9]];
	VAR robtarget Blend_577 := [[375.62, -34.17, 167.2], [0, 0.800336, 0.599552, 0], [0,0,0,0], [9E9, 9E9, 9E9, 9E9, 9E9, 9E9]];
	VAR robtarget Blend_578 := [[375.12, -37.26, 167.2], [0, 0.76151, 0.648153, 0], [0,0,0,0], [9E9, 9E9, 9E9, 9E9, 9E9, 9E9]];
	VAR robtarget Blend_579 := [[375.01, -40.39, 167.2], [0, 0.719737, 0.694246, 0], [0,0,0,0], [9E9, 9E9, 9E9, 9E9, 9E9, 9E9]];
	VAR robtarget Blend_580 := [[375.24, -42.69, 167.2], [0, 0.669623, 0.742702, 0], [0,0,0,0], [9E9, 9E9, 9E9, 9E9, 9E9, 9E9]];
	VAR robtarget Blend_581 := [[375.83, -44.93, 167.2], [0, 0.610323, 0.792152, 0], [0,0,0,0], [9E9, 9E9, 9E9, 9E9, 9E9, 9E9]];
	VAR robtarget Blend_582 := [[376.76, -47.05, 167.2], [0, 0.547386, 0.83688, 0], [0,0,0,0], [9E9, 9E9, 9E9, 9E9, 9E9, 9E9]];
	VAR robtarget Blend_583 := [[378, -49.01, 167.2], [0, 0.481185, 0.876619, 0], [0,0,0,0], [9E9, 9E9, 9E9, 9E9, 9E9, 9E9]];
	VAR robtarget Blend_584 := [[379.53, -50.74, 167.2], [0, 0.412115, 0.911132, 0], [0,0,0,0], [9E9, 9E9, 9E9, 9E9, 9E9, 9E9]];
	VAR robtarget Blend_585 := [[381.31, -52.23, 167.2], [0, 0.340588, 0.940213, 0], [0,0,0,0], [9E9, 9E9, 9E9, 9E9, 9E9, 9E9]];
	VAR robtarget Blend_586 := [[383.3, -53.42, 167.2], [0, 0.267031, 0.963688, 0], [0,0,0,0], [9E9, 9E9, 9E9, 9E9, 9E9, 9E9]];
	VAR robtarget Blend_587 := [[385.44, -54.29, 167.2], [0, 0.191882, 0.981418, 0], [0,0,0,0], [9E9, 9E9, 9E9, 9E9, 9E9, 9E9]];
	VAR robtarget Blend_588 := [[387.69, -54.82, 167.2], [0, 0.115588, 0.993297, 0], [0,0,0,0], [9E9, 9E9, 9E9, 9E9, 9E9, 9E9]];
	VAR robtarget Blend_589 := [[390, -55, 167.2], [0, 0.038606, 0.999255, 0], [0,0,0,0], [9E9, 9E9, 9E9, 9E9, 9E9, 9E9]];
	VAR robtarget Blend_590 := [[458, -55, 167.2], [0, 0, 1, 0], [0,0,0,0], [9E9, 9E9, 9E9, 9E9, 9E9, 9E9]];
	VAR robtarget Blend_591 := [[459.24, -55, 167.3], [0, 0, 1, 0], [0,0,0,0], [9E9, 9E9, 9E9, 9E9, 9E9, 9E9]];
	VAR robtarget Blend_592 := [[509.58, -55, 167.3], [0, 0, 1, 0], [0,0,0,0], [9E9, 9E9, 9E9, 9E9, 9E9, 9E9]];
	VAR robtarget Blend_593 := [[510.91, -54.82, 167.3], [0, -0.067335, 0.99773, 0], [0,0,0,0], [9E9, 9E9, 9E9, 9E9, 9E9, 9E9]];
	VAR robtarget Blend_594 := [[512.15, -54.29, 167.3], [0, -0.200784, 0.979635, 0], [0,0,0,0], [9E9, 9E9, 9E9, 9E9, 9E9, 9E9]];
	VAR robtarget Blend_595 := [[513.2, -53.45, 167.3], [0, -0.330592, 0.943774, 0], [0,0,0,0], [9E9, 9E9, 9E9, 9E9, 9E9, 9E9]];
	VAR robtarget Blend_596 := [[513.99, -52.36, 167.3], [0, -0.454404, 0.890795, 0], [0,0,0,0], [9E9, 9E9, 9E9, 9E9, 9E9, 9E9]];
	VAR robtarget Blend_597 := [[514.46, -51.11, 167.3], [0, -0.569975, 0.821662, 0], [0,0,0,0], [9E9, 9E9, 9E9, 9E9, 9E9, 9E9]];
	VAR robtarget Blend_598 := [[514.58, -49.77, 167.3], [0, -0.675209, 0.737626, 0], [0,0,0,0], [9E9, 9E9, 9E9, 9E9, 9E9, 9E9]];
	VAR robtarget Blend_599 := [[514.34, -48.45, 167.3], [0, 0.768197, -0.640213, 0], [0,0,0,0], [9E9, 9E9, 9E9, 9E9, 9E9, 9E9]];
	VAR robtarget Blend_600 := [[513.75, -47.24, 167.3], [0, 0.847254, -0.531189, 0], [0,0,0,0], [9E9, 9E9, 9E9, 9E9, 9E9, 9E9]];
	VAR robtarget Blend_601 := [[512.86, -46.23, 167.3], [0, 0.910944, -0.412531, 0], [0,0,0,0], [9E9, 9E9, 9E9, 9E9, 9E9, 9E9]];
	VAR robtarget Blend_602 := [[511.74, -45.49, 167.3], [0, 0.958113, -0.286391, 0], [0,0,0,0], [9E9, 9E9, 9E9, 9E9, 9E9, 9E9]];
	VAR robtarget Blend_603 := [[504.62, -42.21, 167.3], [0, 0.976863, -0.213866, 0], [0,0,0,0], [9E9, 9E9, 9E9, 9E9, 9E9, 9E9]];
	VAR robtarget Blend_604 := [[497.4, -39.15, 167.3], [0, 0.979977, -0.19911, 0], [0,0,0,0], [9E9, 9E9, 9E9, 9E9, 9E9, 9E9]];
	VAR robtarget Blend_605 := [[490.09, -36.31, 167.3], [0, 0.982868, -0.184309, 0], [0,0,0,0], [9E9, 9E9, 9E9, 9E9, 9E9, 9E9]];
	VAR robtarget Blend_606 := [[482.69, -33.69, 167.3], [0, 0.985536, -0.169465, 0], [0,0,0,0], [9E9, 9E9, 9E9, 9E9, 9E9, 9E9]];
	VAR robtarget Blend_607 := [[470.23, -29.69, 167.3], [0, 0.987939, -0.154846, 0], [0,0,0,0], [9E9, 9E9, 9E9, 9E9, 9E9, 9E9]];
	VAR robtarget Blend_608 := [[457.65, -26.04, 167.3], [0, 0.990087, -0.140456, 0], [0,0,0,0], [9E9, 9E9, 9E9, 9E9, 9E9, 9E9]];
	VAR robtarget Blend_609 := [[444.97, -22.77, 167.3], [0, 0.992026, -0.126037, 0], [0,0,0,0], [9E9, 9E9, 9E9, 9E9, 9E9, 9E9]];
	VAR robtarget Blend_610 := [[443.69, -22.63, 167.3], [0, 0.998516, -0.054464, 0], [0,0,0,0], [9E9, 9E9, 9E9, 9E9, 9E9, 9E9]];
	VAR robtarget Blend_611 := [[442.42, -22.82, 167.3], [0, 0.99721, 0.074653, 0], [0,0,0,0], [9E9, 9E9, 9E9, 9E9, 9E9, 9E9]];
	VAR robtarget Blend_612 := [[441.24, -23.33, 167.3], [0, 0.979277, 0.202526, 0], [0,0,0,0], [9E9, 9E9, 9E9, 9E9, 9E9, 9E9]];
	VAR robtarget Blend_613 := [[440.22, -24.13, 167.3], [0, 0.945017, 0.327022, 0], [0,0,0,0], [9E9, 9E9, 9E9, 9E9, 9E9, 9E9]];
	VAR robtarget Blend_614 := [[439.45, -25.16, 167.3], [0, 0.895, 0.446066, 0], [0,0,0,0], [9E9, 9E9, 9E9, 9E9, 9E9, 9E9]];
	VAR robtarget Blend_615 := [[438.96, -26.35, 167.3], [0, 0.830061, 0.557673, 0], [0,0,0,0], [9E9, 9E9, 9E9, 9E9, 9E9, 9E9]];
	VAR robtarget Blend_616 := [[438.79, -27.63, 167.3], [0, 0.751282, 0.659981, 0], [0,0,0,0], [9E9, 9E9, 9E9, 9E9, 9E9, 9E9]];
	VAR robtarget Blend_617 := [[438.79, -50, 167.3], [0, 0.707105, 0.707108, 0], [0,0,0,0], [9E9, 9E9, 9E9, 9E9, 9E9, 9E9]];
	VAR robtarget Blend_618 := [[438.62, -51.29, 167.3], [0, 0.751838, 0.659347, 0], [0,0,0,0], [9E9, 9E9, 9E9, 9E9, 9E9, 9E9]];
	VAR robtarget Blend_619 := [[438.12, -52.5, 167.3], [0, 0.831469, 0.555572, 0], [0,0,0,0], [9E9, 9E9, 9E9, 9E9, 9E9, 9E9]];
	VAR robtarget Blend_620 := [[437.33, -53.54, 167.3], [0, 0.896872, 0.44229, 0], [0,0,0,0], [9E9, 9E9, 9E9, 9E9, 9E9, 9E9]];
	VAR robtarget Blend_621 := [[436.29, -54.33, 167.3], [0, 0.94693, 0.32144, 0], [0,0,0,0], [9E9, 9E9, 9E9, 9E9, 9E9, 9E9]];
	VAR robtarget Blend_622 := [[435.09, -54.83, 167.3], [0, 0.980785, 0.195091, 0], [0,0,0,0], [9E9, 9E9, 9E9, 9E9, 9E9, 9E9]];
	VAR robtarget Blend_623 := [[433.79, -55, 167.3], [0, 0.997859, 0.065403, 0], [0,0,0,0], [9E9, 9E9, 9E9, 9E9, 9E9, 9E9]];
	VAR robtarget Blend_624 := [[390, -55, 167.3], [0, 1, 0, 0], [0,0,0,0], [9E9, 9E9, 9E9, 9E9, 9E9, 9E9]];
	VAR robtarget Blend_625 := [[387.69, -54.82, 167.3], [0, 0.999255, -0.038606, 0], [0,0,0,0], [9E9, 9E9, 9E9, 9E9, 9E9, 9E9]];
	VAR robtarget Blend_626 := [[385.44, -54.29, 167.3], [0, 0.993297, -0.115588, 0], [0,0,0,0], [9E9, 9E9, 9E9, 9E9, 9E9, 9E9]];
	VAR robtarget Blend_627 := [[383.3, -53.42, 167.3], [0, 0.981418, -0.191882, 0], [0,0,0,0], [9E9, 9E9, 9E9, 9E9, 9E9, 9E9]];
	VAR robtarget Blend_628 := [[381.31, -52.23, 167.3], [0, 0.963688, -0.267031, 0], [0,0,0,0], [9E9, 9E9, 9E9, 9E9, 9E9, 9E9]];
	VAR robtarget Blend_629 := [[379.53, -50.74, 167.3], [0, 0.940213, -0.340588, 0], [0,0,0,0], [9E9, 9E9, 9E9, 9E9, 9E9, 9E9]];
	VAR robtarget Blend_630 := [[378, -49.01, 167.3], [0, 0.911132, -0.412115, 0], [0,0,0,0], [9E9, 9E9, 9E9, 9E9, 9E9, 9E9]];
	VAR robtarget Blend_631 := [[376.76, -47.05, 167.3], [0, 0.876619, -0.481185, 0], [0,0,0,0], [9E9, 9E9, 9E9, 9E9, 9E9, 9E9]];
	VAR robtarget Blend_632 := [[375.83, -44.93, 167.3], [0, 0.83688, -0.547386, 0], [0,0,0,0], [9E9, 9E9, 9E9, 9E9, 9E9, 9E9]];
	VAR robtarget Blend_633 := [[375.24, -42.69, 167.3], [0, 0.792152, -0.610323, 0], [0,0,0,0], [9E9, 9E9, 9E9, 9E9, 9E9, 9E9]];
	VAR robtarget Blend_634 := [[375.01, -40.39, 167.3], [0, 0.742702, -0.669623, 0], [0,0,0,0], [9E9, 9E9, 9E9, 9E9, 9E9, 9E9]];
	VAR robtarget Blend_635 := [[375.12, -37.26, 167.3], [0, -0.694246, 0.719737, 0], [0,0,0,0], [9E9, 9E9, 9E9, 9E9, 9E9, 9E9]];
	VAR robtarget Blend_636 := [[375.62, -34.17, 167.3], [0, -0.648153, 0.76151, 0], [0,0,0,0], [9E9, 9E9, 9E9, 9E9, 9E9, 9E9]];
	VAR robtarget Blend_637 := [[376.5, -31.16, 167.3], [0, -0.599552, 0.800336, 0], [0,0,0,0], [9E9, 9E9, 9E9, 9E9, 9E9, 9E9]];
	VAR robtarget Blend_638 := [[377.75, -28.28, 167.3], [0, -0.548631, 0.836064, 0], [0,0,0,0], [9E9, 9E9, 9E9, 9E9, 9E9, 9E9]];
	VAR robtarget Blend_639 := [[379.34, -25.58, 167.3], [0, -0.495587, 0.868558, 0], [0,0,0,0], [9E9, 9E9, 9E9, 9E9, 9E9, 9E9]];
	VAR robtarget Blend_640 := [[381.26, -23.1, 167.3], [0, -0.440626, 0.897691, 0], [0,0,0,0], [9E9, 9E9, 9E9, 9E9, 9E9, 9E9]];
	VAR robtarget Blend_641 := [[383.47, -20.88, 167.3], [0, -0.383959, 0.92335, 0], [0,0,0,0], [9E9, 9E9, 9E9, 9E9, 9E9, 9E9]];
	VAR robtarget Blend_642 := [[385.94, -18.95, 167.3], [0, -0.325807, 0.945436, 0], [0,0,0,0], [9E9, 9E9, 9E9, 9E9, 9E9, 9E9]];
	VAR robtarget Blend_643 := [[388.63, -17.34, 167.3], [0, -0.266394, 0.963864, 0], [0,0,0,0], [9E9, 9E9, 9E9, 9E9, 9E9, 9E9]];
	VAR robtarget Blend_644 := [[391.5, -16.08, 167.3], [0, -0.20595, 0.978563, 0], [0,0,0,0], [9E9, 9E9, 9E9, 9E9, 9E9, 9E9]];
	VAR robtarget Blend_645 := [[394.5, -15.18, 167.3], [0, -0.144709, 0.989474, 0], [0,0,0,0], [9E9, 9E9, 9E9, 9E9, 9E9, 9E9]];
	VAR robtarget Blend_646 := [[397.59, -14.66, 167.3], [0, -0.082908, 0.996557, 0], [0,0,0,0], [9E9, 9E9, 9E9, 9E9, 9E9, 9E9]];
	VAR robtarget Blend_647 := [[400.72, -14.53, 167.3], [0, -0.020787, 0.999784, 0], [0,0,0,0], [9E9, 9E9, 9E9, 9E9, 9E9, 9E9]];
	VAR robtarget Blend_648 := [[403.85, -14.79, 167.3], [0, 0.041415, 0.999142, 0], [0,0,0,0], [9E9, 9E9, 9E9, 9E9, 9E9, 9E9]];
	VAR robtarget Blend_649 := [[414.23, -16.43, 167.3], [0, 0.078293, 0.99693, 0], [0,0,0,0], [9E9, 9E9, 9E9, 9E9, 9E9, 9E9]];
	VAR robtarget Blend_650 := [[424.57, -18.31, 167.3], [0, 0.089929, 0.995948, 0], [0,0,0,0], [9E9, 9E9, 9E9, 9E9, 9E9, 9E9]];
	VAR robtarget Blend_651 := [[434.86, -20.44, 167.3], [0, 0.101553, 0.99483, 0], [0,0,0,0], [9E9, 9E9, 9E9, 9E9, 9E9, 9E9]];
	VAR robtarget Blend_652 := [[436.13, -20.9, 167.3], [0, 0.174453, 0.984666, 0], [0,0,0,0], [9E9, 9E9, 9E9, 9E9, 9E9, 9E9]];
	VAR robtarget Blend_653 := [[437.23, -21.69, 167.3], [0, 0.305931, 0.952054, 0], [0,0,0,0], [9E9, 9E9, 9E9, 9E9, 9E9, 9E9]];
	VAR robtarget Blend_654 := [[438.08, -22.74, 167.3], [0, 0.431795, 0.901972, 0], [0,0,0,0], [9E9, 9E9, 9E9, 9E9, 9E9, 9E9]];
	VAR robtarget Blend_655 := [[438.61, -23.98, 167.3], [0, 0.549735, 0.835339, 0], [0,0,0,0], [9E9, 9E9, 9E9, 9E9, 9E9, 9E9]];
	VAR robtarget Blend_656 := [[438.79, -25.32, 167.3], [0, 0.657588, 0.753378, 0], [0,0,0,0], [9E9, 9E9, 9E9, 9E9, 9E9, 9E9]];
	VAR robtarget Blend_657 := [[438.79, -50, 167.3], [0, 0.707105, 0.707108, 0], [0,0,0,0], [9E9, 9E9, 9E9, 9E9, 9E9, 9E9]];
	VAR robtarget Blend_658 := [[438.96, -51.29, 167.3], [0, 0.659344, 0.751841, 0], [0,0,0,0], [9E9, 9E9, 9E9, 9E9, 9E9, 9E9]];
	VAR robtarget Blend_659 := [[439.46, -52.5, 167.3], [0, 0.555569, 0.831471, 0], [0,0,0,0], [9E9, 9E9, 9E9, 9E9, 9E9, 9E9]];
	VAR robtarget Blend_660 := [[440.26, -53.54, 167.3], [0, 0.442288, 0.896873, 0], [0,0,0,0], [9E9, 9E9, 9E9, 9E9, 9E9, 9E9]];
	VAR robtarget Blend_661 := [[441.29, -54.33, 167.3], [0, 0.321439, 0.94693, 0], [0,0,0,0], [9E9, 9E9, 9E9, 9E9, 9E9, 9E9]];
	VAR robtarget Blend_662 := [[442.5, -54.83, 167.3], [0, 0.19509, 0.980785, 0], [0,0,0,0], [9E9, 9E9, 9E9, 9E9, 9E9, 9E9]];
	VAR robtarget Blend_663 := [[443.79, -55, 167.3], [0, 0.065403, 0.997859, 0], [0,0,0,0], [9E9, 9E9, 9E9, 9E9, 9E9, 9E9]];
	VAR robtarget Blend_664 := [[458, -55, 167.3], [0, 0, 1, 0], [0,0,0,0], [9E9, 9E9, 9E9, 9E9, 9E9, 9E9]];
	VAR robtarget Blend_665 := [[459.24, -55, 167.4], [0, 0, 1, 0], [0,0,0,0], [9E9, 9E9, 9E9, 9E9, 9E9, 9E9]];
	VAR robtarget Blend_666 := [[480.68, -55, 167.4], [0, 0, 1, 0], [0,0,0,0], [9E9, 9E9, 9E9, 9E9, 9E9, 9E9]];
	VAR robtarget Blend_667 := [[481.97, -54.83, 167.4], [0, -0.065403, 0.997859, 0], [0,0,0,0], [9E9, 9E9, 9E9, 9E9, 9E9, 9E9]];
	VAR robtarget Blend_668 := [[483.18, -54.33, 167.4], [0, -0.19509, 0.980785, 0], [0,0,0,0], [9E9, 9E9, 9E9, 9E9, 9E9, 9E9]];
	VAR robtarget Blend_669 := [[484.21, -53.54, 167.4], [0, -0.321439, 0.94693, 0], [0,0,0,0], [9E9, 9E9, 9E9, 9E9, 9E9, 9E9]];
	VAR robtarget Blend_670 := [[485.01, -52.5, 167.4], [0, -0.442289, 0.896873, 0], [0,0,0,0], [9E9, 9E9, 9E9, 9E9, 9E9, 9E9]];
	VAR robtarget Blend_671 := [[485.51, -51.29, 167.4], [0, -0.55557, 0.83147, 0], [0,0,0,0], [9E9, 9E9, 9E9, 9E9, 9E9, 9E9]];
	VAR robtarget Blend_672 := [[485.68, -50, 167.4], [0, -0.659346, 0.75184, 0], [0,0,0,0], [9E9, 9E9, 9E9, 9E9, 9E9, 9E9]];
	VAR robtarget Blend_673 := [[485.68, -41.88, 167.4], [0, 0.707107, -0.707107, 0], [0,0,0,0], [9E9, 9E9, 9E9, 9E9, 9E9, 9E9]];
	VAR robtarget Blend_674 := [[485.87, -40.51, 167.4], [0, -0.656559, 0.754275, 0], [0,0,0,0], [9E9, 9E9, 9E9, 9E9, 9E9, 9E9]];
	VAR robtarget Blend_675 := [[486.42, -39.25, 167.4], [0, -0.546305, 0.837586, 0], [0,0,0,0], [9E9, 9E9, 9E9, 9E9, 9E9, 9E9]];
	VAR robtarget Blend_676 := [[487.3, -38.19, 167.4], [0, -0.425618, 0.904903, 0], [0,0,0,0], [9E9, 9E9, 9E9, 9E9, 9E9, 9E9]];
	VAR robtarget Blend_677 := [[488.44, -37.41, 167.4], [0, -0.296803, 0.954939, 0], [0,0,0,0], [9E9, 9E9, 9E9, 9E9, 9E9, 9E9]];
	VAR robtarget Blend_678 := [[489.74, -36.96, 167.4], [0, -0.162321, 0.986738, 0], [0,0,0,0], [9E9, 9E9, 9E9, 9E9, 9E9, 9E9]];
	VAR robtarget Blend_679 := [[491.12, -36.9, 167.4], [0, -0.024738, 0.999694, 0], [0,0,0,0], [9E9, 9E9, 9E9, 9E9, 9E9, 9E9]];
	VAR robtarget Blend_680 := [[492.46, -37.21, 167.4], [0, 0.113317, 0.993559, 0], [0,0,0,0], [9E9, 9E9, 9E9, 9E9, 9E9, 9E9]];
	VAR robtarget Blend_681 := [[498.96, -39.79, 167.4], [0, 0.188307, 0.98211, 0], [0,0,0,0], [9E9, 9E9, 9E9, 9E9, 9E9, 9E9]];
	VAR robtarget Blend_682 := [[505.39, -42.56, 167.4], [0, 0.201503, 0.979488, 0], [0,0,0,0], [9E9, 9E9, 9E9, 9E9, 9E9, 9E9]];
	VAR robtarget Blend_683 := [[511.74, -45.49, 167.4], [0, 0.214661, 0.976689, 0], [0,0,0,0], [9E9, 9E9, 9E9, 9E9, 9E9, 9E9]];
	VAR robtarget Blend_684 := [[512.86, -46.23, 167.4], [0, 0.286391, 0.958113, 0], [0,0,0,0], [9E9, 9E9, 9E9, 9E9, 9E9, 9E9]];
	VAR robtarget Blend_685 := [[513.75, -47.24, 167.4], [0, 0.412531, 0.910944, 0], [0,0,0,0], [9E9, 9E9, 9E9, 9E9, 9E9, 9E9]];
	VAR robtarget Blend_686 := [[514.34, -48.45, 167.4], [0, 0.531189, 0.847254, 0], [0,0,0,0], [9E9, 9E9, 9E9, 9E9, 9E9, 9E9]];
	VAR robtarget Blend_687 := [[514.58, -49.77, 167.4], [0, 0.640213, 0.768197, 0], [0,0,0,0], [9E9, 9E9, 9E9, 9E9, 9E9, 9E9]];
	VAR robtarget Blend_688 := [[514.46, -51.11, 167.4], [0, 0.737626, 0.675209, 0], [0,0,0,0], [9E9, 9E9, 9E9, 9E9, 9E9, 9E9]];
	VAR robtarget Blend_689 := [[513.99, -52.36, 167.4], [0, 0.821662, 0.569975, 0], [0,0,0,0], [9E9, 9E9, 9E9, 9E9, 9E9, 9E9]];
	VAR robtarget Blend_690 := [[513.2, -53.45, 167.4], [0, 0.890795, 0.454404, 0], [0,0,0,0], [9E9, 9E9, 9E9, 9E9, 9E9, 9E9]];
	VAR robtarget Blend_691 := [[512.15, -54.29, 167.4], [0, 0.943774, 0.330592, 0], [0,0,0,0], [9E9, 9E9, 9E9, 9E9, 9E9, 9E9]];
	VAR robtarget Blend_692 := [[510.91, -54.82, 167.4], [0, 0.979635, 0.200784, 0], [0,0,0,0], [9E9, 9E9, 9E9, 9E9, 9E9, 9E9]];
	VAR robtarget Blend_693 := [[509.58, -55, 167.4], [0, 0.99773, 0.067335, 0], [0,0,0,0], [9E9, 9E9, 9E9, 9E9, 9E9, 9E9]];
	VAR robtarget Blend_694 := [[490.68, -55, 167.4], [0, 1, 0, 0], [0,0,0,0], [9E9, 9E9, 9E9, 9E9, 9E9, 9E9]];
	VAR robtarget Blend_695 := [[489.38, -54.83, 167.4], [0, 0.997859, -0.065403, 0], [0,0,0,0], [9E9, 9E9, 9E9, 9E9, 9E9, 9E9]];
	VAR robtarget Blend_696 := [[488.18, -54.33, 167.4], [0, 0.980785, -0.19509, 0], [0,0,0,0], [9E9, 9E9, 9E9, 9E9, 9E9, 9E9]];
	VAR robtarget Blend_697 := [[487.14, -53.54, 167.4], [0, 0.94693, -0.321439, 0], [0,0,0,0], [9E9, 9E9, 9E9, 9E9, 9E9, 9E9]];
	VAR robtarget Blend_698 := [[486.35, -52.5, 167.4], [0, 0.896873, -0.442289, 0], [0,0,0,0], [9E9, 9E9, 9E9, 9E9, 9E9, 9E9]];
	VAR robtarget Blend_699 := [[485.85, -51.29, 167.4], [0, 0.83147, -0.55557, 0], [0,0,0,0], [9E9, 9E9, 9E9, 9E9, 9E9, 9E9]];
	VAR robtarget Blend_700 := [[485.68, -50, 167.4], [0, 0.75184, -0.659346, 0], [0,0,0,0], [9E9, 9E9, 9E9, 9E9, 9E9, 9E9]];
	VAR robtarget Blend_701 := [[485.68, -38.29, 167.4], [0, 0.707107, -0.707107, 0], [0,0,0,0], [9E9, 9E9, 9E9, 9E9, 9E9, 9E9]];
	VAR robtarget Blend_702 := [[485.52, -37.05, 167.4], [0, 0.749769, -0.661699, 0], [0,0,0,0], [9E9, 9E9, 9E9, 9E9, 9E9, 9E9]];
	VAR robtarget Blend_703 := [[485.07, -35.9, 167.4], [0, 0.826208, -0.563365, 0], [0,0,0,0], [9E9, 9E9, 9E9, 9E9, 9E9, 9E9]];
	VAR robtarget Blend_704 := [[484.34, -34.89, 167.4], [0, 0.88983, -0.456292, 0], [0,0,0,0], [9E9, 9E9, 9E9, 9E9, 9E9, 9E9]];
	VAR robtarget Blend_705 := [[483.39, -34.09, 167.4], [0, 0.939649, -0.34214, 0], [0,0,0,0], [9E9, 9E9, 9E9, 9E9, 9E9, 9E9]];
	VAR robtarget Blend_706 := [[482.27, -33.55, 167.4], [0, 0.974891, -0.222681, 0], [0,0,0,0], [9E9, 9E9, 9E9, 9E9, 9E9, 9E9]];
	VAR robtarget Blend_707 := [[471.29, -30.01, 167.4], [0, 0.987881, -0.15521, 0], [0,0,0,0], [9E9, 9E9, 9E9, 9E9, 9E9, 9E9]];
	VAR robtarget Blend_708 := [[460.23, -26.76, 167.4], [0, 0.989789, -0.142537, 0], [0,0,0,0], [9E9, 9E9, 9E9, 9E9, 9E9, 9E9]];
	VAR robtarget Blend_709 := [[449.08, -23.79, 167.4], [0, 0.991535, -0.12984, 0], [0,0,0,0], [9E9, 9E9, 9E9, 9E9, 9E9, 9E9]];
	VAR robtarget Blend_710 := [[437.86, -21.1, 167.4], [0, 0.993118, -0.117122, 0], [0,0,0,0], [9E9, 9E9, 9E9, 9E9, 9E9, 9E9]];
	VAR robtarget Blend_711 := [[426.58, -18.71, 167.4], [0, 0.994537, -0.104385, 0], [0,0,0,0], [9E9, 9E9, 9E9, 9E9, 9E9, 9E9]];
	VAR robtarget Blend_712 := [[415.24, -16.6, 167.4], [0, 0.995793, -0.09163, 0], [0,0,0,0], [9E9, 9E9, 9E9, 9E9, 9E9, 9E9]];
	VAR robtarget Blend_713 := [[403.85, -14.79, 167.4], [0, 0.996886, -0.078861, 0], [0,0,0,0], [9E9, 9E9, 9E9, 9E9, 9E9, 9E9]];
	VAR robtarget Blend_714 := [[400.72, -14.53, 167.4], [0, 0.999142, -0.041415, 0], [0,0,0,0], [9E9, 9E9, 9E9, 9E9, 9E9, 9E9]];
	VAR robtarget Blend_715 := [[397.59, -14.66, 167.4], [0, 0.999784, 0.020787, 0], [0,0,0,0], [9E9, 9E9, 9E9, 9E9, 9E9, 9E9]];
	VAR robtarget Blend_716 := [[394.5, -15.18, 167.4], [0, 0.996557, 0.082908, 0], [0,0,0,0], [9E9, 9E9, 9E9, 9E9, 9E9, 9E9]];
	VAR robtarget Blend_717 := [[391.5, -16.08, 167.4], [0, 0.989474, 0.144709, 0], [0,0,0,0], [9E9, 9E9, 9E9, 9E9, 9E9, 9E9]];
	VAR robtarget Blend_718 := [[388.63, -17.34, 167.4], [0, 0.978563, 0.20595, 0], [0,0,0,0], [9E9, 9E9, 9E9, 9E9, 9E9, 9E9]];
	VAR robtarget Blend_719 := [[385.94, -18.95, 167.4], [0, 0.963864, 0.266394, 0], [0,0,0,0], [9E9, 9E9, 9E9, 9E9, 9E9, 9E9]];
	VAR robtarget Blend_720 := [[383.47, -20.88, 167.4], [0, 0.945436, 0.325807, 0], [0,0,0,0], [9E9, 9E9, 9E9, 9E9, 9E9, 9E9]];
	VAR robtarget Blend_721 := [[381.26, -23.1, 167.4], [0, 0.92335, 0.383959, 0], [0,0,0,0], [9E9, 9E9, 9E9, 9E9, 9E9, 9E9]];
	VAR robtarget Blend_722 := [[379.34, -25.58, 167.4], [0, 0.897691, 0.440626, 0], [0,0,0,0], [9E9, 9E9, 9E9, 9E9, 9E9, 9E9]];
	VAR robtarget Blend_723 := [[377.75, -28.28, 167.4], [0, 0.868558, 0.495587, 0], [0,0,0,0], [9E9, 9E9, 9E9, 9E9, 9E9, 9E9]];
	VAR robtarget Blend_724 := [[376.5, -31.16, 167.4], [0, 0.836064, 0.548631, 0], [0,0,0,0], [9E9, 9E9, 9E9, 9E9, 9E9, 9E9]];
	VAR robtarget Blend_725 := [[375.62, -34.17, 167.4], [0, 0.800336, 0.599552, 0], [0,0,0,0], [9E9, 9E9, 9E9, 9E9, 9E9, 9E9]];
	VAR robtarget Blend_726 := [[375.12, -37.26, 167.4], [0, 0.76151, 0.648153, 0], [0,0,0,0], [9E9, 9E9, 9E9, 9E9, 9E9, 9E9]];
	VAR robtarget Blend_727 := [[375.01, -40.39, 167.4], [0, 0.719737, 0.694246, 0], [0,0,0,0], [9E9, 9E9, 9E9, 9E9, 9E9, 9E9]];
	VAR robtarget Blend_728 := [[375.24, -42.69, 167.4], [0, 0.669623, 0.742702, 0], [0,0,0,0], [9E9, 9E9, 9E9, 9E9, 9E9, 9E9]];
	VAR robtarget Blend_729 := [[375.83, -44.93, 167.4], [0, 0.610323, 0.792152, 0], [0,0,0,0], [9E9, 9E9, 9E9, 9E9, 9E9, 9E9]];
	VAR robtarget Blend_730 := [[376.76, -47.05, 167.4], [0, 0.547386, 0.83688, 0], [0,0,0,0], [9E9, 9E9, 9E9, 9E9, 9E9, 9E9]];
	VAR robtarget Blend_731 := [[378, -49.01, 167.4], [0, 0.481185, 0.876619, 0], [0,0,0,0], [9E9, 9E9, 9E9, 9E9, 9E9, 9E9]];
	VAR robtarget Blend_732 := [[379.53, -50.74, 167.4], [0, 0.412115, 0.911132, 0], [0,0,0,0], [9E9, 9E9, 9E9, 9E9, 9E9, 9E9]];
	VAR robtarget Blend_733 := [[381.31, -52.23, 167.4], [0, 0.340588, 0.940213, 0], [0,0,0,0], [9E9, 9E9, 9E9, 9E9, 9E9, 9E9]];
	VAR robtarget Blend_734 := [[383.3, -53.42, 167.4], [0, 0.267031, 0.963688, 0], [0,0,0,0], [9E9, 9E9, 9E9, 9E9, 9E9, 9E9]];
	VAR robtarget Blend_735 := [[385.44, -54.29, 167.4], [0, 0.191882, 0.981418, 0], [0,0,0,0], [9E9, 9E9, 9E9, 9E9, 9E9, 9E9]];
	VAR robtarget Blend_736 := [[387.69, -54.82, 167.4], [0, 0.115588, 0.993297, 0], [0,0,0,0], [9E9, 9E9, 9E9, 9E9, 9E9, 9E9]];
	VAR robtarget Blend_737 := [[390, -55, 167.4], [0, 0.038606, 0.999255, 0], [0,0,0,0], [9E9, 9E9, 9E9, 9E9, 9E9, 9E9]];
	VAR robtarget Blend_738 := [[458, -55, 167.4], [0, 0, 1, 0], [0,0,0,0], [9E9, 9E9, 9E9, 9E9, 9E9, 9E9]];
	VAR robtarget Blend_739 := [[459.24, -55, 167.5], [0, 0, 1, 0], [0,0,0,0], [9E9, 9E9, 9E9, 9E9, 9E9, 9E9]];
	VAR robtarget Blend_740 := [[509.58, -55, 167.5], [0, 0, 1, 0], [0,0,0,0], [9E9, 9E9, 9E9, 9E9, 9E9, 9E9]];
	VAR robtarget Blend_741 := [[510.91, -54.82, 167.5], [0, -0.067335, 0.99773, 0], [0,0,0,0], [9E9, 9E9, 9E9, 9E9, 9E9, 9E9]];
	VAR robtarget Blend_742 := [[512.15, -54.29, 167.5], [0, -0.200784, 0.979635, 0], [0,0,0,0], [9E9, 9E9, 9E9, 9E9, 9E9, 9E9]];
	VAR robtarget Blend_743 := [[513.2, -53.45, 167.5], [0, -0.330592, 0.943774, 0], [0,0,0,0], [9E9, 9E9, 9E9, 9E9, 9E9, 9E9]];
	VAR robtarget Blend_744 := [[513.99, -52.36, 167.5], [0, -0.454404, 0.890795, 0], [0,0,0,0], [9E9, 9E9, 9E9, 9E9, 9E9, 9E9]];
	VAR robtarget Blend_745 := [[514.46, -51.11, 167.5], [0, -0.569975, 0.821662, 0], [0,0,0,0], [9E9, 9E9, 9E9, 9E9, 9E9, 9E9]];
	VAR robtarget Blend_746 := [[514.58, -49.77, 167.5], [0, -0.675209, 0.737626, 0], [0,0,0,0], [9E9, 9E9, 9E9, 9E9, 9E9, 9E9]];
	VAR robtarget Blend_747 := [[514.34, -48.45, 167.5], [0, 0.768197, -0.640213, 0], [0,0,0,0], [9E9, 9E9, 9E9, 9E9, 9E9, 9E9]];
	VAR robtarget Blend_748 := [[513.75, -47.24, 167.5], [0, 0.847254, -0.531189, 0], [0,0,0,0], [9E9, 9E9, 9E9, 9E9, 9E9, 9E9]];
	VAR robtarget Blend_749 := [[512.86, -46.23, 167.5], [0, 0.910944, -0.412531, 0], [0,0,0,0], [9E9, 9E9, 9E9, 9E9, 9E9, 9E9]];
	VAR robtarget Blend_750 := [[511.74, -45.49, 167.5], [0, 0.958113, -0.286391, 0], [0,0,0,0], [9E9, 9E9, 9E9, 9E9, 9E9, 9E9]];
	VAR robtarget Blend_751 := [[504.62, -42.21, 167.5], [0, 0.976863, -0.213866, 0], [0,0,0,0], [9E9, 9E9, 9E9, 9E9, 9E9, 9E9]];
	VAR robtarget Blend_752 := [[497.4, -39.15, 167.5], [0, 0.979977, -0.19911, 0], [0,0,0,0], [9E9, 9E9, 9E9, 9E9, 9E9, 9E9]];
	VAR robtarget Blend_753 := [[490.09, -36.31, 167.5], [0, 0.982868, -0.184309, 0], [0,0,0,0], [9E9, 9E9, 9E9, 9E9, 9E9, 9E9]];
	VAR robtarget Blend_754 := [[482.69, -33.69, 167.5], [0, 0.985536, -0.169465, 0], [0,0,0,0], [9E9, 9E9, 9E9, 9E9, 9E9, 9E9]];
	VAR robtarget Blend_755 := [[470.23, -29.69, 167.5], [0, 0.987939, -0.154846, 0], [0,0,0,0], [9E9, 9E9, 9E9, 9E9, 9E9, 9E9]];
	VAR robtarget Blend_756 := [[457.65, -26.04, 167.5], [0, 0.990087, -0.140456, 0], [0,0,0,0], [9E9, 9E9, 9E9, 9E9, 9E9, 9E9]];
	VAR robtarget Blend_757 := [[444.97, -22.77, 167.5], [0, 0.992026, -0.126037, 0], [0,0,0,0], [9E9, 9E9, 9E9, 9E9, 9E9, 9E9]];
	VAR robtarget Blend_758 := [[443.69, -22.63, 167.5], [0, 0.998516, -0.054464, 0], [0,0,0,0], [9E9, 9E9, 9E9, 9E9, 9E9, 9E9]];
	VAR robtarget Blend_759 := [[442.42, -22.82, 167.5], [0, 0.99721, 0.074653, 0], [0,0,0,0], [9E9, 9E9, 9E9, 9E9, 9E9, 9E9]];
	VAR robtarget Blend_760 := [[441.24, -23.33, 167.5], [0, 0.979277, 0.202526, 0], [0,0,0,0], [9E9, 9E9, 9E9, 9E9, 9E9, 9E9]];
	VAR robtarget Blend_761 := [[440.22, -24.13, 167.5], [0, 0.945017, 0.327022, 0], [0,0,0,0], [9E9, 9E9, 9E9, 9E9, 9E9, 9E9]];
	VAR robtarget Blend_762 := [[439.45, -25.16, 167.5], [0, 0.895, 0.446066, 0], [0,0,0,0], [9E9, 9E9, 9E9, 9E9, 9E9, 9E9]];
	VAR robtarget Blend_763 := [[438.96, -26.35, 167.5], [0, 0.830061, 0.557673, 0], [0,0,0,0], [9E9, 9E9, 9E9, 9E9, 9E9, 9E9]];
	VAR robtarget Blend_764 := [[438.79, -27.63, 167.5], [0, 0.751282, 0.659981, 0], [0,0,0,0], [9E9, 9E9, 9E9, 9E9, 9E9, 9E9]];
	VAR robtarget Blend_765 := [[438.79, -50, 167.5], [0, 0.707105, 0.707108, 0], [0,0,0,0], [9E9, 9E9, 9E9, 9E9, 9E9, 9E9]];
	VAR robtarget Blend_766 := [[438.62, -51.29, 167.5], [0, 0.751838, 0.659347, 0], [0,0,0,0], [9E9, 9E9, 9E9, 9E9, 9E9, 9E9]];
	VAR robtarget Blend_767 := [[438.12, -52.5, 167.5], [0, 0.831469, 0.555572, 0], [0,0,0,0], [9E9, 9E9, 9E9, 9E9, 9E9, 9E9]];
	VAR robtarget Blend_768 := [[437.33, -53.54, 167.5], [0, 0.896872, 0.44229, 0], [0,0,0,0], [9E9, 9E9, 9E9, 9E9, 9E9, 9E9]];
	VAR robtarget Blend_769 := [[436.29, -54.33, 167.5], [0, 0.94693, 0.32144, 0], [0,0,0,0], [9E9, 9E9, 9E9, 9E9, 9E9, 9E9]];
	VAR robtarget Blend_770 := [[435.09, -54.83, 167.5], [0, 0.980785, 0.195091, 0], [0,0,0,0], [9E9, 9E9, 9E9, 9E9, 9E9, 9E9]];
	VAR robtarget Blend_771 := [[433.79, -55, 167.5], [0, 0.997859, 0.065403, 0], [0,0,0,0], [9E9, 9E9, 9E9, 9E9, 9E9, 9E9]];
	VAR robtarget Blend_772 := [[390, -55, 167.5], [0, 1, 0, 0], [0,0,0,0], [9E9, 9E9, 9E9, 9E9, 9E9, 9E9]];
	VAR robtarget Blend_773 := [[387.69, -54.82, 167.5], [0, 0.999255, -0.038606, 0], [0,0,0,0], [9E9, 9E9, 9E9, 9E9, 9E9, 9E9]];
	VAR robtarget Blend_774 := [[385.44, -54.29, 167.5], [0, 0.993297, -0.115588, 0], [0,0,0,0], [9E9, 9E9, 9E9, 9E9, 9E9, 9E9]];
	VAR robtarget Blend_775 := [[383.3, -53.42, 167.5], [0, 0.981418, -0.191882, 0], [0,0,0,0], [9E9, 9E9, 9E9, 9E9, 9E9, 9E9]];
	VAR robtarget Blend_776 := [[381.31, -52.23, 167.5], [0, 0.963688, -0.267031, 0], [0,0,0,0], [9E9, 9E9, 9E9, 9E9, 9E9, 9E9]];
	VAR robtarget Blend_777 := [[379.53, -50.74, 167.5], [0, 0.940213, -0.340588, 0], [0,0,0,0], [9E9, 9E9, 9E9, 9E9, 9E9, 9E9]];
	VAR robtarget Blend_778 := [[378, -49.01, 167.5], [0, 0.911132, -0.412115, 0], [0,0,0,0], [9E9, 9E9, 9E9, 9E9, 9E9, 9E9]];
	VAR robtarget Blend_779 := [[376.76, -47.05, 167.5], [0, 0.876619, -0.481185, 0], [0,0,0,0], [9E9, 9E9, 9E9, 9E9, 9E9, 9E9]];
	VAR robtarget Blend_780 := [[375.83, -44.93, 167.5], [0, 0.83688, -0.547386, 0], [0,0,0,0], [9E9, 9E9, 9E9, 9E9, 9E9, 9E9]];
	VAR robtarget Blend_781 := [[375.24, -42.69, 167.5], [0, 0.792152, -0.610323, 0], [0,0,0,0], [9E9, 9E9, 9E9, 9E9, 9E9, 9E9]];
	VAR robtarget Blend_782 := [[375.01, -40.39, 167.5], [0, 0.742702, -0.669623, 0], [0,0,0,0], [9E9, 9E9, 9E9, 9E9, 9E9, 9E9]];
	VAR robtarget Blend_783 := [[375.12, -37.26, 167.5], [0, -0.694246, 0.719737, 0], [0,0,0,0], [9E9, 9E9, 9E9, 9E9, 9E9, 9E9]];
	VAR robtarget Blend_784 := [[375.62, -34.17, 167.5], [0, -0.648153, 0.76151, 0], [0,0,0,0], [9E9, 9E9, 9E9, 9E9, 9E9, 9E9]];
	VAR robtarget Blend_785 := [[376.5, -31.16, 167.5], [0, -0.599552, 0.800336, 0], [0,0,0,0], [9E9, 9E9, 9E9, 9E9, 9E9, 9E9]];
	VAR robtarget Blend_786 := [[377.75, -28.28, 167.5], [0, -0.548631, 0.836064, 0], [0,0,0,0], [9E9, 9E9, 9E9, 9E9, 9E9, 9E9]];
	VAR robtarget Blend_787 := [[379.34, -25.58, 167.5], [0, -0.495587, 0.868558, 0], [0,0,0,0], [9E9, 9E9, 9E9, 9E9, 9E9, 9E9]];
	VAR robtarget Blend_788 := [[381.26, -23.1, 167.5], [0, -0.440626, 0.897691, 0], [0,0,0,0], [9E9, 9E9, 9E9, 9E9, 9E9, 9E9]];
	VAR robtarget Blend_789 := [[383.47, -20.88, 167.5], [0, -0.383959, 0.92335, 0], [0,0,0,0], [9E9, 9E9, 9E9, 9E9, 9E9, 9E9]];
	VAR robtarget Blend_790 := [[385.94, -18.95, 167.5], [0, -0.325807, 0.945436, 0], [0,0,0,0], [9E9, 9E9, 9E9, 9E9, 9E9, 9E9]];
	VAR robtarget Blend_791 := [[388.63, -17.34, 167.5], [0, -0.266394, 0.963864, 0], [0,0,0,0], [9E9, 9E9, 9E9, 9E9, 9E9, 9E9]];
	VAR robtarget Blend_792 := [[391.5, -16.08, 167.5], [0, -0.20595, 0.978563, 0], [0,0,0,0], [9E9, 9E9, 9E9, 9E9, 9E9, 9E9]];
	VAR robtarget Blend_793 := [[394.5, -15.18, 167.5], [0, -0.144709, 0.989474, 0], [0,0,0,0], [9E9, 9E9, 9E9, 9E9, 9E9, 9E9]];
	VAR robtarget Blend_794 := [[397.59, -14.66, 167.5], [0, -0.082908, 0.996557, 0], [0,0,0,0], [9E9, 9E9, 9E9, 9E9, 9E9, 9E9]];
